!!!COM:	Regis, Johannes
!!!CDT:	~1425///-~1496///
!!!OTL:	Lux solemnis / Repleti sunt omnes
!!!AGN:	Motet
!!!SCT:	Reg2006
!!!SCA:	Reg2006
!!!voices:	5
**kern	**text	**kern	**text	**kern	**text	**kern	**text	**kern	**text
*staff5	*staff5	*staff4	*staff4	*staff3	*staff3	*staff2	*staff2	*staff1	*staff1
*Ivox	*	*Ivox	*	*Ivox	*	*Ivox	*	*	*
*I"Barriphanos	*	*I"Vagans	*	*I"Tenor	*	*I"Contratenor	*	*I"Superius	*
*I'Bp	*	*I'V	*	*I'T	*	*I'Ct	*	*I'S	*
*>[A,B]	*>[A,B]	*>[A,B]	*>[A,B]	*>[A,B]	*>[A,B]	*>[A,B]	*>[A,B]	*>[A,B]	*>[A,B]
*>A	*>A	*>A	*>A	*>A	*>A	*>A	*>A	*>A	*>A
*clefF4	*	*clefF4	*	*clefGv2	*	*clefG2	*	*clefG2	*
*k[]	*	*k[]	*	*k[]	*	*k[]	*	*k[]	*
*M3/1	*	*M3/1	*	*M3/1	*	*M3/1	*	*M3/1	*
*met(O)	*	*met(O)	*	*met(O)	*	*met(O)	*	*met(O)	*
!!section: Lux solemnis/Repleti sunt omnes
!!!OMD: Lux solemnis/Repleti sunt omnes
=1-	=1-	=1-	=1-	=1-	=1-	=1-	=1-	=1-	=1-
[0.D	Lux	0D	Lux	0.r	.	0.d	Lux	0.r	.
.	.	1D	sol-	.	.	.	.	.	.
=2	=2	=2	=2	=2	=2	=2	=2	=2	=2
0D]	.	2F\	-em-	0.r	.	1d	sol-	0.a	Lux
.	.	2G\	.	.	.	.	.	.	.
.	.	1A	-nis	.	.	1.f	.	.	.
1D	sol-	1A	ad-	.	.	.	.	.	.
.	.	.	.	.	.	2e/	.	.	.
=3	=3	=3	=3	=3	=3	=3	=3	=3	=3
0AA	-em-	0A	-est,	0.r	.	1c	-em-	1a	sol-
.	.	.	.	.	.	1.e	.	1.cc	.
[1C	.	[1G	.	.	.	.	.	.	.
.	.	.	.	.	.	2d/	.	2b\	.
=4	=4	=4	=4	=4	=4	=4	=4	=4	=4
1C]	.	0.G]	.	0.r	.	1e	-nis	1g	-em-
0GG	-nis	.	.	.	.	1.g	.	1.b	.
.	.	.	.	.	.	2f/	.	2a/	.
=5	=5	=5	=5	=5	=5	=5	=5	=5	=5
0.D	ad-	0A	ru-	0.r	.	1f	ad-	2a/	-nis
.	.	.	.	.	.	.	.	2g/	.
.	.	.	.	.	.	1.d	.	1f	.
.	.	1A	-ti-	.	.	.	.	[1a	ad-
.	.	.	.	.	.	2c#i/	.	.	.
=6	=6	=6	=6	=6	=6	=6	=6	=6	=6
0.AA	-est,	0A	-lans,	0.r	.	0c#	-est,	2a/]	.
.	.	.	.	.	.	.	.	2g/	.
.	.	.	.	.	.	.	.	1e	.
.	.	1A	dig-	.	.	[1e	ru-	1a	.
=7	=7	=7	=7	=7	=7	=7	=7	=7	=7
[0.C	ru-	0E	-nis-	0.r	.	2e/]	.	0g	-est,
.	.	.	.	.	.	1e	-ti-	.	.
.	.	.	.	.	.	2f/	.	.	.
.	.	1E	-si-	.	.	1g	-lans,	[1e	ru-
=8	=8	=8	=8	=8	=8	=8	=8	=8	=8
0.C_	.	0G	-ma	0.r	.	1g	dig-	2e/]	.
.	.	.	.	.	.	.	.	1e	-ti-
.	.	.	.	.	.	2g/	-nis-	.	.
.	.	.	.	.	.	2g/	-si-	2f/	.
.	.	1G	lau-	.	.	1e	-ma	1g	-lans,
=9	=9	=9	=9	=9	=9	=9	=9	=9	=9
0.C]	-ti-	1E	-de,	0.r	.	0e	lau-	1g	dig-
.	.	0G	ac	.	.	.	.	2g/	-nis-
.	.	.	.	.	.	.	.	2g/	-si-
.	.	.	.	.	.	[1c	.	1e	-ma
=10	=10	=10	=10	=10	=10	=10	=10	=10	=10
0.FF	-lans,	0A	me-	0.r	.	1c]	.	1.f	lau-
.	.	.	.	.	.	1c	-de,	.	.
.	.	.	.	.	.	.	.	2.a/	.
.	.	1A	-ri-	.	.	1f	.	.	.
.	.	.	.	.	.	.	.	4g/	.
.	.	.	.	.	.	.	.	2f/	.
=11	=11	=11	=11	=11	=11	=11	=11	=11	=11
0C	dig-	1G	-to	0.r	.	2.g/	ac	0.e	-de,
.	.	.	.	.	.	4f/	.	.	.
.	.	1G	cun-	.	.	1.e	me-	.	.
1C	-nis-	1A	.	.	.	.	.	.	.
.	.	.	.	.	.	2d/	.	.	.
=12	=12	=12	=12	=12	=12	=12	=12	=12	=12
1D	-si-	1F	-ctis	0.r	.	1.d	-ri-	1r	.
0AA	-ma	0E	.	.	.	.	.	1r	.
.	.	.	.	.	.	2c#i/	.	.	.
.	.	.	.	.	.	2c#i/	.	1e	ac
.	.	.	.	.	.	2B/	.	.	.
=13	=13	=13	=13	=13	=13	=13	=13	=13	=13
0.DD	lau-	0.D	.	0.r	.	1.d	-to	1f	me-
.	.	.	.	.	.	.	.	1f	-ri-
.	.	.	.	.	.	2c/	.	.	.
.	.	.	.	.	.	1A	cun-	1d	-to
=14	=14	=14	=14	=14	=14	=14	=14	=14	=14
0.AA	-de,	1r	.	0.E	Re-	1A	-ctis	0e	cun-
.	.	1C	ce-	.	.	1r	.	.	.
.	.	1C	-le-	.	.	1r	.	1e	-ctis
=15	=15	=15	=15	=15	=15	=15	=15	=15	=15
0.BB	ac	1D	-bri	0.G	-ple-	0.r	.	1r	.
.	.	1D	ve-	.	.	.	.	1d	ce-
.	.	1D	-ne-	.	.	.	.	1d	-le-
=16	=16	=16	=16	=16	=16	=16	=16	=16	=16
[0.AA	me-	0.E	-ran-	0.A	.	0e	ce-	0c	-bri
.	.	.	.	.	.	1c	-le-	1e	ve-
=17	=17	=17	=17	=17	=17	=17	=17	=17	=17
0.AA]	-ri-	1E	-da	0.c	.	1A	-bri	1e	-ne-
.	.	1r	.	.	.	2c/	ve-	0a	-ran-
.	.	.	.	.	.	2d/	.	.	.
.	.	1r	.	.	.	1e	-ne-	.	.
=18	=18	=18	=18	=18	=18	=18	=18	=18	=18
[0.FF	-to	0.F	de-	0.A	.	1.f	-ran-	1a	-da
.	.	.	.	.	.	.	.	1.cc	.
.	.	.	.	.	.	1a	-da	.	.
.	.	.	.	.	.	2g/	.	2b\	.
=19	=19	=19	=19	=19	=19	=19	=19	=19	=19
0.FF]	.	0.F	-co-	[0.c	-ti	2f/	de-	0a	de-
.	.	.	.	.	.	2c/	.	.	.
.	.	.	.	.	.	1f	.	.	.
.	.	.	.	.	.	1f	-co-	1a	-co-
=20	=20	=20	=20	=20	=20	=20	=20	=20	=20
0.C	cun-	0.G	-re,	0.c]	.	1e	-re,	0g	-re,
.	.	.	.	.	.	1r	.	.	.
.	.	.	.	.	.	[1g	Spi-	1r	.
=21	=21	=21	=21	=21	=21	=21	=21	=21	=21
0GG	-ctis	0G	Spi-	0.d	.	1g]	.	0b-	Spi-
.	.	.	.	.	.	1g	-ri-	.	.
1r	.	1D	-ri-	.	.	1f	.	1a	-ri-
=22	=22	=22	=22	=22	=22	=22	=22	=22	=22
0.r	.	1F	-tus	0c	.	1f	-tus	1a	-tus
.	.	0C	e	.	.	1e	.	1g	.
.	.	.	.	[1c	sunt	2c/	e	1e	e
.	.	.	.	.	.	2d/	.	.	.
=23	=23	=23	=23	=23	=23	=23	=23	=23	=23
0.r	.	1AA	cel-	1c]	.	0e	cel-	1.a	cel-
.	.	0E	.	0B	.	.	.	.	.
.	.	.	.	.	.	.	.	2g#i/	.
.	.	.	.	.	.	1e	-so	2g#i/	.
.	.	.	.	.	.	.	.	2f#i/	.
=24	=24	=24	=24	=24	=24	=24	=24	=24	=24
0.r	.	0AA	-so	0A	.	0e	mis-	0.a	-so
.	.	1A	mis-	1c	.	1e	-sus	.	.
=25	=25	=25	=25	=25	=25	=25	=25	=25	=25
1D	mis-	2F\	-sus	2A/	.	1f	qua	0.r	.
.	.	2D\	.	1B	.	.	.	.	.
2.D\	-sus	2.F\	qua	.	.	1d	.	.	.
.	.	.	.	2A/	.	.	.	.	.
4C/	.	4E\	.	.	.	.	.	.	.
2BB/	qua	2D\	.	2G/	.	2.d/	no-	.	.
2AA/	.	2F\	.	2A/	.	.	.	.	.
.	.	.	.	.	.	4c/	.	.	.
=26	=26	=26	=26	=26	=26	=26	=26	=26	=26
2GG/	no-	4G\	no-	2B\	.	2B/	.	0.r	.
.	.	2E\	.	.	.	.	.	.	.
2AA/	.	.	.	2c\	.	2A/	-sci-	.	.
.	.	4F\	.	.	.	.	.	.	.
2GG/	.	2G\	.	2B\	.	2B/	-tur	.	.
2BB/	-sci-	1D	.	1G	.	2d/	.	.	.
1AA	-tur	.	.	.	.	2r	.	.	.
.	.	2C/	-sci-	2F#i/	.	2A/	or-	.	.
=27	=27	=27	=27	=27	=27	=27	=27	=27	=27
0GG	or-	1D	-tur	0.G	.	2.B/	.	0.r	.
.	.	.	.	.	.	4c/	.	.	.
.	.	2.BB/	or-	.	.	2d/	.	.	.
.	.	.	.	.	.	2e/	.	.	.
.	.	4C/	.	.	.	.	.	.	.
1GG	-bi,	2D\	.	.	.	4d/	.	.	.
.	.	.	.	.	.	2B/	.	.	.
.	.	2E\	.	.	.	.	.	.	.
.	.	.	.	.	.	4c/	.	.	.
=28	=28	=28	=28	=28	=28	=28	=28	=28	=28
1r	.	2F\	.	0.r	.	2d/	.	0.r	.
.	.	2G\	.	.	.	4e/	.	.	.
.	.	.	.	.	.	2g/	.	.	.
1DD	a-	2A\	.	.	.	.	.	.	.
.	.	.	.	.	.	4f/	.	.	.
.	.	2F\	.	.	.	1d	.	.	.
1AA	.	1E	.	.	.	.	.	.	.
.	.	.	.	.	.	2c#i/	.	.	.
=29	=29	=29	=29	=29	=29	=29	=29	=29	=29
0.DD	.	0D	.	0.A	om-	0.d	-bi,	0.a	mis-
.	.	1D	-bi,	.	.	.	.	.	.
=30	=30	=30	=30	=30	=30	=30	=30	=30	=30
0AA	.	1r	.	0c	.	1r	.	0e	-sus
.	.	1A	a-	.	.	1r	.	.	.
[1EE	-stra	1G	.	[1B	.	1e	a-	[1g	qua
=31	=31	=31	=31	=31	=31	=31	=31	=31	=31
1EE]	.	0G	-stra	0.B]	.	1e	-stra	2g/]	.
.	.	.	.	.	.	.	.	1g	no-
0GG	pe-	.	.	.	.	1d	.	.	.
.	.	.	.	.	.	.	.	4f/	-sci-
.	.	.	.	.	.	.	.	4e/	.
.	.	2r	.	.	.	2G/	.	1d	-tur
.	.	2G\	pe-	.	.	[2d/	.	.	.
=32	=32	=32	=32	=32	=32	=32	=32	=32	=32
1DD	-tens	1F	.	0.r	.	2d/]	.	1a	or-
.	.	.	.	.	.	2d/	pe-	.	.
1r	.	1G	.	.	.	2B/	.	2g/	-bi,
.	.	.	.	.	.	2G/	.	1g	a-
1r	.	1D	.	.	.	1A	.	.	.
.	.	.	.	.	.	.	.	2f#i/	.
=33	=33	=33	=33	=33	=33	=33	=33	=33	=33
1r	.	0GG	-tens	0.G	.	1G	-tens	1g	-stra
1r	.	.	.	.	.	2r	.	1.b-	.
.	.	.	.	.	.	1d	Chri-	.	.
1GG	Chri-	1G	Chri-	.	.	.	.	.	.
.	.	.	.	.	.	2e/	.	2a/	.
=34	=34	=34	=34	=34	=34	=34	=34	=34	=34
1FF	-stus,	1.A	.	0.c	.	1f	-stus,	0a	pe-
0C	.	.	.	.	.	0e	.	.	.
.	.	2G\	.	.	.	.	.	.	.
.	.	2E\	.	.	.	.	.	1cc	-tens
.	.	2F\	.	.	.	.	.	.	.
=35	=35	=35	=35	=35	=35	=35	=35	=35	=35
1GG	da-	1G	-stus,	0d	.	1r	.	1b	Chri-
1D	-re,	1A	.	.	.	1f	da-	1a	.
1E	quem	1r	.	[1c	.	1g	-re,	1g	.
=36	=36	=36	=36	=36	=36	=36	=36	=36	=36
1F	spo-	1r	.	0.c]	.	1a	quem	1f	.
0C	-spon-	1G	da-	.	.	2g/	spo-	1e	-stus,
.	.	.	.	.	.	2f/	.	.	.
.	.	1G	-re,	.	.	1e	-spon-	2r	.
.	.	.	.	.	.	.	.	[2g/	da-
=37	=37	=37	=37	=37	=37	=37	=37	=37	=37
0.GG	-dit	0G	quem	0.B	.	1d	.	2g/]	.
.	.	.	.	.	.	.	.	2g/	-re,
.	.	.	.	.	.	1d	-dit	2g/	quem
.	.	.	.	.	.	.	.	1g	spo-
.	.	2.G\	spo-	.	.	[1d	a-	.	.
.	.	.	.	.	.	.	.	2g/	-spon-
.	.	4F\	.	.	.	.	.	.	.
=38	=38	=38	=38	=38	=38	=38	=38	=38	=38
0.r	.	2D\	-spon-	0.r	.	2d/]	.	2f/	.
.	.	1A	-dit	.	.	2c/	.	1e	.
.	.	.	.	.	.	1A	-lum-	.	.
.	.	4G\	a-	.	.	.	.	1a	.
.	.	4F\	.	.	.	.	.	.	.
.	.	1E	-lum-	.	.	1B	.	.	.
.	.	.	.	.	.	.	.	2g#i/	.
=39	=39	=39	=39	=39	=39	=39	=39	=39	=39
1r	.	0AA	-nis.	0.A	-nes	1A	-nis.	1a	-dit
1r	.	.	.	.	.	1r	.	1a	a-
1AA	Hinc	1AA	Hinc	.	.	1e	Hinc	1a	-lum-
=40	=40	=40	=40	=40	=40	=40	=40	=40	=40
0EE	plebs	0E	plebs	0.B	.	0e	plebs	0.g	-nis.
1EE	in	1E	in	.	.	[1e	in	.	.
=41	=41	=41	=41	=41	=41	=41	=41	=41	=41
1AA	Do-	1E	Do-	0c	.	1e]	.	1r	.
1AA	-mi-	1F	-mi-	.	.	1A	.	1a	Hinc
[1GG	-no	[1G	-no,	[1B	.	2r	.	2b\	.
.	.	.	.	.	.	[2d/	Do-	2g/	.
=42	=42	=42	=42	=42	=42	=42	=42	=42	=42
0.GG]	.	0.G]	.	0.B]	.	2d/]	.	0.g	plebs
.	.	.	.	.	.	2d/	-mi-	.	.
.	.	.	.	.	.	2e/	.	.	.
.	.	.	.	.	.	2.d/	.	.	.
.	.	.	.	.	.	4c/	.	.	.
.	.	.	.	.	.	4B/	.	.	.
.	.	.	.	.	.	4A/	.	.	.
=43	=43	=43	=43	=43	=43	=43	=43	=43	=43
0.r	.	1D	Do-	0.r	.	2A/	.	1f	.
.	.	.	.	.	.	2d/	.	.	.
.	.	0G	-mi-	.	.	4e/	.	0e	.
.	.	.	.	.	.	4d/	.	.	.
.	.	.	.	.	.	4c#i/	.	.	.
.	.	.	.	.	.	4B/	.	.	.
.	.	.	.	.	.	1c#i	.	.	.
=44	=44	=44	=44	=44	=44	=44	=44	=44	=44
0.DD	per	0.D	-no	0.A	Spi-	1d	-no	0d	.
.	.	.	.	.	.	1r	.	.	.
.	.	.	.	.	.	1f	per	1d	in
=45	=45	=45	=45	=45	=45	=45	=45	=45	=45
0GG	.	0.r	.	0B	.	2g/	cli-	1.d	Do-
.	.	.	.	.	.	1g	-ma-	.	.
.	.	.	.	.	.	2f/	.	2c/	-mi-
1AA	cli-	.	.	1c	-ri-	1e	.	1A	-no
=46	=46	=46	=46	=46	=46	=46	=46	=46	=46
2.BB/	-ma-	0.r	.	2.d\	-tu	1d	-ta	0.r	.
4C/	.	.	.	4c\	.	.	.	.	.
2.D\	.	.	.	2B\	.	2.d/	cun-	.	.
.	.	.	.	2A/	.	.	.	.	.
4C/	.	.	.	.	.	4e/	.	.	.
2D\	-ta	.	.	2B\	San-	2f/	-cta,	.	.
2E\	.	.	.	[2c\	.	2g/	.	.	.
=47	=47	=47	=47	=47	=47	=47	=47	=47	=47
2AA/	cun-	2C/	per	2c\]	.	2e/	re-	0.r	.
2BB/	.	2D\	cli-	2.B\	.	2d/	.	.	.
2C/	.	2E\	-ma-	.	.	2c/	.	.	.
.	.	.	.	4A/	.	.	.	.	.
2D\	-cta,	2F\	.	1A	.	2A/	.	.	.
1BB	re-	1D	-ta	.	.	1B	-sul-	.	.
.	.	.	.	2G#i/	.	.	.	.	.
=48	=48	=48	=48	=48	=48	=48	=48	=48	=48
0.AA	-sul-	0E	cun-	0.A	-cto,	2c/	-tet;	0.r	.
.	.	.	.	.	.	2d/	.	.	.
.	.	.	.	.	.	1e	.	.	.
.	.	1C	-cta,	.	.	1r	.	.	.
=49	=49	=49	=49	=49	=49	=49	=49	=49	=49
1DD	-tet;	1D	re-	0.r	.	1f	hinc	0a	per
1r	.	1F	-sul-	.	.	1f	clan-	.	.
1r	.	[1C	.	.	.	1e	.	1g	cli-
=50	=50	=50	=50	=50	=50	=50	=50	=50	=50
0.r	.	1C]	.	0.r	.	1g	-gor	1e	-ma-
.	.	0D	-tet;	.	.	2.f/	re-	1a	-ta
.	.	.	.	.	.	4e/	.	.	.
.	.	.	.	.	.	2d/	-so-	1a	cun-
.	.	.	.	.	.	2c/	.	.	.
=51	=51	=51	=51	=51	=51	=51	=51	=51	=51
0.r	.	1E	hinc	0.r	.	1B	-net	1g	-cta,
.	.	1C	clan-	.	.	1.e	mo-	2r	.
.	.	.	.	.	.	.	.	2g/	re-
.	.	1AA	-gor	.	.	.	.	2a/	.
.	.	.	.	.	.	2c/	.	[2cc\	-sul-
=52	=52	=52	=52	=52	=52	=52	=52	=52	=52
0.r	.	2AA/	re-	0.r	.	1e	-du-	2cc\]	.
.	.	2GG/	-so-	.	.	.	.	2b\	.
.	.	1AA	-net	.	.	2c/	-lan-	4a/	.
.	.	.	.	.	.	.	.	4g/	.
.	.	.	.	.	.	2A/	.	1a	.
.	.	1E	.	.	.	1B	.	.	.
.	.	.	.	.	.	.	.	2g#i/	.
=53	=53	=53	=53	=53	=53	=53	=53	=53	=53
0.r	.	2r	.	0.r	.	1A	-tis	0a	-tet;
.	.	2.AA/	car-	.	.	.	.	.	.
.	.	.	.	.	.	2r	.	.	.
.	.	4BB/	.	.	.	.	.	.	.
.	.	2C/	.	.	.	2.e/	car-	.	.
.	.	2D\	.	.	.	.	.	1r	.
.	.	.	.	.	.	4f/	.	.	.
.	.	2E\	.	.	.	2g/	.	.	.
=54	=54	=54	=54	=54	=54	=54	=54	=54	=54
0.r	.	2F\	.	0.r	.	2a/	.	0.r	.
.	.	2.A\	.	.	.	2f/	.	.	.
.	.	.	.	.	.	2e/	-mi-	.	.
.	.	4G\	.	.	.	.	.	.	.
.	.	2F\	.	.	.	1d	.	.	.
.	.	1E	-mi-	.	.	.	.	.	.
.	.	.	.	.	.	2c#i/	.	.	.
=55	=55	=55	=55	=55	=55	=55	=55	=55	=55
0.r	.	0D	-ne,	0.r	.	1d	-ne	1a	hinc
.	.	.	.	.	.	1d	plec-	1f	.
.	.	1AA	.	.	.	2c/	.	1e	clan-
.	.	.	.	.	.	[2e/	.	.	.
=56	=56	=56	=56	=56	=56	=56	=56	=56	=56
0.r	.	1r	.	0.r	.	2e/]	.	2c/	-gor
.	.	.	.	.	.	2f/	.	2d/	.
.	.	1.A	hinc	.	.	2e/	.	2e/	.
.	.	.	.	.	.	1c	.	2e/	re-
.	.	.	.	.	.	.	.	2f/	-so-
.	.	2G\	.	.	.	2B/	.	2g/	.
=57	=57	=57	=57	=57	=57	=57	=57	=57	=57
0.r	.	2F\	clan-	0.r	.	1A	-tri.	2a/	-net
.	.	2D\	-gor	.	.	.	.	2f/	.
.	.	2C/	re-	.	.	1r	.	2.e/	mo-
.	.	2AA/	-so-	.	.	.	.	.	.
.	.	.	.	.	.	.	.	4f/	.
.	.	2.E\	-net	.	.	1r	.	2g/	-du-
.	.	.	.	.	.	.	.	2a/	.
.	.	4F\	.	.	.	.	.	.	.
=58	=58	=58	=58	=58	=58	=58	=58	=58	=58
0.r	.	2G\	mo-	0.r	.	0.r	.	2b\	-lan-
.	.	2A\	.	.	.	.	.	2cc\	-tis
.	.	2F\	-du-	.	.	.	.	2.a/	car-
.	.	1E	-lan-	.	.	.	.	.	.
.	.	.	.	.	.	.	.	4g/	.
.	.	.	.	.	.	.	.	4g/	.
.	.	.	.	.	.	.	.	4f/	.
.	.	2E\	-tis	.	.	.	.	2g/	-mi-
=59	=59	=59	=59	=59	=59	=59	=59	=59	=59
0.r	.	2D\	car-	0.r	.	0.r	.	2f/	-ne
.	.	2C/	-mi-	.	.	.	.	2.e/	plec-
.	.	2G\	-ne	.	.	.	.	.	.
.	.	.	.	.	.	.	.	4d/	.
.	.	2F\	.	.	.	.	.	1d	.
.	.	1E	plec-	.	.	.	.	.	.
.	.	.	.	.	.	.	.	2c#i/	.
=60	=60	=60	=60	=60	=60	=60	=60	=60	=60
1D	Fe-	1D	-tri.	0.r	.	1d	Fe-	1d	-tri.
2E\	-sta	1r	.	.	.	2c/	-sta	1r	.
2F\	di-	.	.	.	.	2d/	.	.	.
2E\	-es	1r	.	.	.	2e/	di-	1r	.
2C/	ad-	.	.	.	.	2e/	-es	.	.
=61	=61	=61	=61	=61	=61	=61	=61	=61	=61
1D	-e-	1A	Fe-	0.r	.	1f	ad-	1r	.
1AA	-rat,	1A	-sta	.	.	1e	-e-	1r	.
1r	.	1F	di-	.	.	1A	-rat,	1a	Fe-
=62	=62	=62	=62	=62	=62	=62	=62	=62	=62
1C	fe-	2E\	-es	0.r	.	1r	.	2g/	-sta
.	.	2F\	ad-	.	.	.	.	2a/	.
1BB	-li-	1G	-e-	.	.	1r	.	2b\	di-
.	.	.	.	.	.	.	.	2b\	-es
1AA	-ci-	1A	-rat,	.	.	2.e/	fe-	1cc	ad-
.	.	.	.	.	.	4f/	.	.	.
=63	=63	=63	=63	=63	=63	=63	=63	=63	=63
1E	-a	1G	fe-	0.r	.	2g/	-li-	1b	-e-
.	.	.	.	.	.	2g/	-ci-	.	.
1F	tem-	2F\	-li-	.	.	2a/	-a	1a	-rat,
.	.	2D\	-ci-	.	.	2a/	tem-	.	.
[1C	.	2.E\	-a	.	.	2g/	.	1r	.
.	.	.	.	.	.	[2e/	.	.	.
.	.	4F\	.	.	.	.	.	.	.
=64	=64	=64	=64	=64	=64	=64	=64	=64	=64
2C/]	.	2G\	tem-	0.r	.	4e/]	.	0.r	.
.	.	.	.	.	.	4d/	.	.	.
2D\	.	2F\	.	.	.	1d	.	.	.
2BB/	.	1G	.	.	.	.	.	.	.
2GG/	.	.	.	.	.	1g	.	.	.
1D	-po-	1A	-po-	.	.	.	.	.	.
.	.	.	.	.	.	2f#i/	-po-	.	.
=65	=65	=65	=65	=65	=65	=65	=65	=65	=65
0GG	-ra	0G	-ra,	0.r	.	1g	-ra	2.g/	fe-
.	.	.	.	.	.	.	.	4a/	.
.	.	.	.	.	.	2r	.	2b\	-li-
.	.	.	.	.	.	2g/	si-	2b\	-ci-
1AA	si-	1r	.	.	.	2f/	.	2a/	-a
.	.	.	.	.	.	2e/	.	[2cc\	tem-
=66	=66	=66	=66	=66	=66	=66	=66	=66	=66
1GG	-gnans;	1G	fe-	0.r	.	2.g/	.	2cc\]	.
.	.	.	.	.	.	.	.	2b\	-po-
.	.	.	.	.	.	4f/	.	.	.
1r	.	2D\	-li-	.	.	2f/	.	2a/	-ra
.	.	2E\	-ci-	.	.	2e/	.	2g/	si-
1r	.	1D	-a	.	.	2f/	.	2.a/	.
.	.	.	.	.	.	2d/	.	.	.
.	.	.	.	.	.	.	.	4g/	.
=67	=67	=67	=67	=67	=67	=67	=67	=67	=67
0.r	.	2r	.	0.r	.	2c/	.	2a/	.
.	.	1G	tem-	.	.	2d/	.	2.b\	.
.	.	.	.	.	.	1G	.	.	.
.	.	.	.	.	.	.	.	4a/	.
.	.	2E\	.	.	.	.	.	1g	.
.	.	1D	-po-	.	.	1A	.	.	.
.	.	.	.	.	.	.	.	2f#i/	.
=68	=68	=68	=68	=68	=68	=68	=68	=68	=68
0.r	.	0GG	-ra,	0.r	.	1G	.	0g	-gnans;
.	.	.	.	.	.	2.B/	.	.	.
.	.	.	.	.	.	4c/	.	.	.
.	.	2.BB/	tem-	.	.	2d/	.	1r	.
.	.	.	.	.	.	2e/	.	.	.
.	.	4C/	.	.	.	.	.	.	.
=69	=69	=69	=69	=69	=69	=69	=69	=69	=69
0.r	.	2D\	.	0.r	.	2f/	.	0.r	.
.	.	2E\	.	.	.	2e/	.	.	.
.	.	2F\	.	.	.	2c/	.	.	.
.	.	2E\	-po-	.	.	2r	.	.	.
.	.	2C/	-ra	.	.	2.e/	.	.	.
.	.	2r	.	.	.	.	.	.	.
.	.	.	.	.	.	4f/	.	.	.
=70	=70	=70	=70	=70	=70	=70	=70	=70	=70
0.r	.	2.E\	si-	0.r	.	2g/	.	0.r	.
.	.	.	.	.	.	2a/	.	.	.
.	.	4F\	.	.	.	.	.	.	.
.	.	2G\	.	.	.	2g/	.	.	.
.	.	1A	.	.	.	2e/	.	.	.
.	.	.	.	.	.	1f	.	.	.
.	.	[2D\	.	.	.	.	.	.	.
=71	=71	=71	=71	=71	=71	=71	=71	=71	=71
0.r	.	2D\]	.	0.r	.	2f/	.	0.r	.
.	.	2C/	.	.	.	2.e/	.	.	.
.	.	2D\	.	.	.	.	.	.	.
.	.	.	.	.	.	4d/	.	.	.
.	.	2F\	.	.	.	1d	.	.	.
.	.	1E	.	.	.	.	.	.	.
.	.	.	.	.	.	2c#i/	.	.	.
=72	=72	=72	=72	=72	=72	=72	=72	=72	=72
0D	cum-	1D	-gnans;	0.r	.	0.d	-gnans;	0.r	.
.	.	2r	.	.	.	.	.	.	.
.	.	1D	cum-	.	.	.	.	.	.
1BB	-que	.	.	.	.	.	.	.	.
.	.	2D\	-que	.	.	.	.	.	.
=73	=73	=73	=73	=73	=73	=73	=73	=73	=73
2GG/	re-	2E\	re-	0.r	.	0.r	.	0.r	.
2AA/	-pen-	2F\	-pen-	.	.	.	.	.	.
2BB/	-ti-	2.G\	-ti-	.	.	.	.	.	.
1C	.	.	.	.	.	.	.	.	.
.	.	4F\	.	.	.	.	.	.	.
.	.	4E\	.	.	.	.	.	.	.
.	.	4D\	.	.	.	.	.	.	.
2D\	.	2F\	.	.	.	.	.	.	.
=74	=74	=74	=74	=74	=74	=74	=74	=74	=74
1E	.	2G\	.	0.r	.	0.r	.	0.r	.
.	.	1E	.	.	.	.	.	.	.
2C/	.	.	.	.	.	.	.	.	.
2D\	.	1A	.	.	.	.	.	.	.
1BB	.	.	.	.	.	.	.	.	.
.	.	2G#i\	.	.	.	.	.	.	.
=75	=75	=75	=75	=75	=75	=75	=75	=75	=75
0.AA	-no	1A	-no	0.r	.	1.c#	cum-	1.a	cum-
.	.	1r	.	.	.	.	.	.	.
.	.	.	.	.	.	2d/	.	2g/	.
.	.	1r	.	.	.	2e/	-que	1a	-que
.	.	.	.	.	.	2f/	.	.	.
=76	=76	=76	=76	=76	=76	=76	=76	=76	=76
0.r	.	0.r	.	0.r	.	1g	re-	1b	re-
.	.	.	.	.	.	2e/	-pen-	2.cc\	-pen-
.	.	.	.	.	.	2.a/	-ti-	.	.
.	.	.	.	.	.	.	.	4b\	.
.	.	.	.	.	.	.	.	2b\	-ti-
.	.	.	.	.	.	4g/	.	.	.
.	.	.	.	.	.	2f/	.	[2a/	.
=77	=77	=77	=77	=77	=77	=77	=77	=77	=77
0.r	.	0.r	.	0.r	.	4e/	.	2a/]	.
.	.	.	.	.	.	4d/	.	.	.
.	.	.	.	.	.	2e/	.	2g/	.
.	.	.	.	.	.	2A/	.	2a/	.
.	.	.	.	.	.	1d	.	2f/	.
.	.	.	.	.	.	.	.	1e	.
.	.	.	.	.	.	2c#i/	.	.	.
=78	=78	=78	=78	=78	=78	=78	=78	=78	=78
1.D	so-	2.D\	so-	0.r	.	1d	-no	1d	-no
.	.	4E\	.	.	.	.	.	.	.
.	.	2F\	.	.	.	1r	.	1r	.
2BB/	.	2G\	.	.	.	.	.	.	.
2D\	.	2F\	.	.	.	1r	.	1r	.
2C/	.	[2E\	.	.	.	.	.	.	.
=79	=79	=79	=79	=79	=79	=79	=79	=79	=79
2.AA/	.	2E\]	.	0.r	.	0.r	.	0.r	.
.	.	2E\	.	.	.	.	.	.	.
4GG/	.	.	.	.	.	.	.	.	.
2AA/	.	2F\	.	.	.	.	.	.	.
2C/	.	1A	.	.	.	.	.	.	.
1BB	-ni-	.	.	.	.	.	.	.	.
.	.	2G#i\	-ni-	.	.	.	.	.	.
=80	=80	=80	=80	=80	=80	=80	=80	=80	=80
0AA	-tu	1A	-tu	0.r	.	1.e	so-	1.a	so-
.	.	1r	.	.	.	.	.	.	.
.	.	.	.	.	.	2.a/	.	2cc\	.
1r	.	1r	.	.	.	.	.	2b\	.
.	.	.	.	.	.	4g/	.	.	.
.	.	.	.	.	.	4f/	.	2a/	.
.	.	.	.	.	.	4e/	.	.	.
=81	=81	=81	=81	=81	=81	=81	=81	=81	=81
0.r	.	0.r	.	0.r	.	4g/	.	2b\	.
.	.	.	.	.	.	4f/	.	.	.
.	.	.	.	.	.	2.e/	.	1g	.
.	.	.	.	.	.	4d/	.	.	.
.	.	.	.	.	.	1d	.	2f/	.
.	.	.	.	.	.	.	.	1e	-ni-
.	.	.	.	.	.	2c#i/	-ni-	.	.
=82	=82	=82	=82	=82	=82	=82	=82	=82	=82
1D	co-	2.D\	co-	0.r	.	1d	-tu	1d	-tu
.	.	4E\	.	.	.	.	.	.	.
2D\	-mi-	2F\	-mi-	.	.	1r	.	1r	.
2C/	-tan-	2.E\	-tan-	.	.	.	.	.	.
2AA/	.	.	.	.	.	1r	.	1r	.
.	.	4D\	.	.	.	.	.	.	.
[2E\	-te	2C/	.	.	.	.	.	.	.
=83	=83	=83	=83	=83	=83	=83	=83	=83	=83
4E\]	.	2BB/	-te	0.r	.	0.r	.	0.r	.
4D\	.	.	.	.	.	.	.	.	.
2C/	.	1AA	re-	.	.	.	.	.	.
2AA/	re-	.	.	.	.	.	.	.	.
2C/	.	2.A\	-ful-	.	.	.	.	.	.
1BB	-ful-	.	.	.	.	.	.	.	.
.	.	4G#i\	.	.	.	.	.	.	.
.	.	2G#i\	.	.	.	.	.	.	.
=84	=84	=84	=84	=84	=84	=84	=84	=84	=84
1AA	-sit,	1A	-sit,	0.r	.	2.c/	co-	1a	co-
.	.	.	.	.	.	4d/	-mi-	.	.
1r	.	1r	.	.	.	2e/	-tan-	2a/	-mi-
.	.	.	.	.	.	2f/	-te	2a/	-tan-
1r	.	1r	.	.	.	2.g/	re-	2b\	-te
.	.	.	.	.	.	.	.	[2g/	.
.	.	.	.	.	.	4f/	.	.	.
=85	=85	=85	=85	=85	=85	=85	=85	=85	=85
0.r	.	0.r	.	0.r	.	2e/	.	2g/]	.
.	.	.	.	.	.	2f/	.	2.a/	re-
.	.	.	.	.	.	2e/	-ful-	.	.
.	.	.	.	.	.	.	.	4g/	.
.	.	.	.	.	.	1d	.	2f/	.
.	.	.	.	.	.	.	.	1e	-ful-
.	.	.	.	.	.	2c#i/	.	.	.
=86	=86	=86	=86	=86	=86	=86	=86	=86	=86
1D	di-	2.D\	di-	0.r	.	1d	-sit,	1d	-sit,
.	.	4E\	.	.	.	.	.	.	.
2D\	-sci-	2F\	-sci-	.	.	1r	.	1r	.
2D\	-pu-	2F\	-pu-	.	.	.	.	.	.
1C	-los	2E\	-los	.	.	1r	.	1r	.
.	.	[2A\	su-	.	.	.	.	.	.
=87	=87	=87	=87	=87	=87	=87	=87	=87	=87
2AA/	su-	2A\]	.	0.r	.	0.r	.	0.r	.
2C/	.	2G\	.	.	.	.	.	.	.
2D\	.	2F\	.	.	.	.	.	.	.
2BB/	.	1G	.	.	.	.	.	.	.
2GG/	.	.	.	.	.	.	.	.	.
[2AA/	.	2E\	.	.	.	.	.	.	.
=88	=88	=88	=88	=88	=88	=88	=88	=88	=88
2AA/]	.	2F\	.	0.r	.	0.r	.	0.r	.
2GG/	.	2.E\	.	.	.	.	.	.	.
2AA/	.	.	.	.	.	.	.	.	.
.	.	4D\	.	.	.	.	.	.	.
2FF/	.	1D	.	.	.	.	.	.	.
1EE	.	.	.	.	.	.	.	.	.
.	.	2C#i/	.	.	.	.	.	.	.
=89	=89	=89	=89	=89	=89	=89	=89	=89	=89
1DD	-pra	1D	-pra	0.r	.	1d	di-	1a	di-
1r	.	1r	.	.	.	2d/	-sci-	1a	-sci-
.	.	.	.	.	.	2f/	.	.	.
1r	.	1r	.	.	.	2e/	-pu-	2.g/	-pu-
.	.	.	.	.	.	[2c/	-los	.	.
.	.	.	.	.	.	.	.	4f/	.
=90	=90	=90	=90	=90	=90	=90	=90	=90	=90
0.r	.	0.r	.	0.r	.	4c/]	.	2e/	-los
.	.	.	.	.	.	4B/	.	.	.
.	.	.	.	.	.	2c/	.	2e/	su-
.	.	.	.	.	.	2A/	su-	2f/	.
.	.	.	.	.	.	2c/	.	1a	.
.	.	.	.	.	.	1B	.	.	.
.	.	.	.	.	.	.	.	2g#i/	.
=91	=91	=91	=91	=91	=91	=91	=91	=91	=91
1AA	in	2.AA/	in	0.r	.	1A	-pra	1a	-pra
.	.	4BB/	.	.	.	.	.	.	.
2.AA/	lin-	2C/	.	.	.	1r	.	1r	.
.	.	2D\	lin-	.	.	.	.	.	.
4BB/	.	.	.	.	.	.	.	.	.
2C/	.	2E\	.	.	.	1r	.	1r	.
2D\	.	[2F\	.	.	.	.	.	.	.
=92	=92	=92	=92	=92	=92	=92	=92	=92	=92
1AA	.	4F\]	.	0.r	.	0.r	.	0.r	.
.	.	4E\	.	.	.	.	.	.	.
.	.	2F\	.	.	.	.	.	.	.
2GG/	.	2E\	.	.	.	.	.	.	.
2FF/	.	2.D\	.	.	.	.	.	.	.
1EE	.	.	.	.	.	.	.	.	.
.	.	4C#i/	.	.	.	.	.	.	.
.	.	2C#i/	.	.	.	.	.	.	.
=93	=93	=93	=93	=93	=93	=93	=93	=93	=93
1DD	-guis	1D	-guis	0.r	.	1d	in	1.a	in
1r	.	1r	.	.	.	2d/	lin-	.	.
.	.	.	.	.	.	2d/	.	2f/	.
1r	.	1r	.	.	.	2c/	.	2e/	lin-
.	.	.	.	.	.	2e/	.	2g/	.
=94	=94	=94	=94	=94	=94	=94	=94	=94	=94
0.r	.	0.r	.	0.r	.	2f/	.	2a/	.
.	.	.	.	.	.	2.e/	.	2cc\	.
.	.	.	.	.	.	.	.	2b\	.
.	.	.	.	.	.	4d/	.	.	.
.	.	.	.	.	.	2c/	.	1a	.
.	.	.	.	.	.	1B	.	.	.
.	.	.	.	.	.	.	.	2g#i/	.
=95	=95	=95	=95	=95	=95	=95	=95	=95	=95
1AA	i-	1A	i-	0.r	.	1A	-guis	1a	-guis
2BB/	-gni-	2G\	-gni-	.	.	1r	.	1r	.
2C/	-que	1A	-que	.	.	.	.	.	.
2D\	.	.	.	.	.	1r	.	1r	.
2F\	re-	2A\	re-	.	.	.	.	.	.
=96	=96	=96	=96	=96	=96	=96	=96	=96	=96
1E	-se-	2G\	-se-	0.r	.	0.r	.	0.r	.
.	.	2E\	.	.	.	.	.	.	.
2AA/	.	1F	.	.	.	.	.	.	.
1D	.	.	.	.	.	.	.	.	.
.	.	1E	.	.	.	.	.	.	.
2C#i/	.	.	.	.	.	.	.	.	.
=97	=97	=97	=97	=97	=97	=97	=97	=97	=97
1D	-dit,	1D	-dit,	0.r	.	2.d/	i-	1a	i-
.	.	.	.	.	.	4c/	.	.	.
1r	.	1r	.	.	.	2B/	-gni-	2g/	-gni-
.	.	.	.	.	.	2A/	.	1a	.
1r	.	1r	.	.	.	2c/	.	.	.
.	.	.	.	.	.	2d/	-que	2a/	-que
=98	=98	=98	=98	=98	=98	=98	=98	=98	=98
0.r	.	0.r	.	0.r	.	2e/	re-	2g/	re-
.	.	.	.	.	.	1d	-se-	2f/	.
.	.	.	.	.	.	.	.	1e	-se-
.	.	.	.	.	.	2c/	.	.	.
.	.	.	.	.	.	2d/	.	1d	.
.	.	.	.	.	.	2f/	.	.	.
=99	=99	=99	=99	=99	=99	=99	=99	=99	=99
1AA	e-	1A	e-	0.r	.	1e	-dit,	1c	-dit,
2AA/	-lo-	2F\	-lo-	.	.	1r	.	1r	.
2BB/	-qui-	1G	-qui-	.	.	.	.	.	.
2.C/	-o	.	.	.	.	1r	.	1r	.
.	.	2G\	-o	.	.	.	.	.	.
4BB/	.	.	.	.	.	.	.	.	.
=100	=100	=100	=100	=100	=100	=100	=100	=100	=100
2C/	di-	2A\	di-	0.r	.	0.r	.	0.r	.
2D\	.	2.A\	-tans	.	.	.	.	.	.
2E\	-tans	.	.	.	.	.	.	.	.
.	.	4G\	.	.	.	.	.	.	.
1D	il-	2F\	.	.	.	.	.	.	.
.	.	1E	il-	.	.	.	.	.	.
2C#i/	.	.	.	.	.	.	.	.	.
=101	=101	=101	=101	=101	=101	=101	=101	=101	=101
1D	-los	1D	-los	0.r	.	1d	e-	1d	e-
1r	.	1r	.	.	.	2d/	-lo-	2f/	-lo-
.	.	.	.	.	.	2e/	.	2g/	-qui-
1r	.	1r	.	.	.	2.f/	-qui-	2a/	-o
.	.	.	.	.	.	.	.	2a/	di-
.	.	.	.	.	.	4e/	.	.	.
=102	=102	=102	=102	=102	=102	=102	=102	=102	=102
0.r	.	0.r	.	0.r	.	2d/	.	2b\	-tans
.	.	.	.	.	.	2c/	.	1cc	.
.	.	.	.	.	.	1A	-o	.	.
.	.	.	.	.	.	.	.	2.a/	.
.	.	.	.	.	.	1d	di-	.	.
.	.	.	.	.	.	.	.	4g/	.
.	.	.	.	.	.	.	.	2f/	.
=103	=103	=103	=103	=103	=103	=103	=103	=103	=103
[0.AA	et	0.A	et	0.r	.	1c#	-tans	1e	il-
.	.	.	.	.	.	1r	.	1e	-los
.	.	.	.	.	.	1e	il-	1a	et
=104	=104	=104	=104	=104	=104	=104	=104	=104	=104
1AA]	do-	0A	do-	0.r	.	1e	-los	0a	do-
0DD	-gma-	.	.	.	.	1.f	et	.	.
.	.	1A	-gma-	.	.	.	.	1f	-gma-
.	.	.	.	.	.	[2a/	do-	.	.
=105	=105	=105	=105	=105	=105	=105	=105	=105	=105
1.D	-te	2.F\	-te	0.r	.	2a/]	.	1d	-te
.	.	.	.	.	.	2g/	.	.	.
.	.	4G\	.	.	.	.	.	.	.
.	.	1A	.	.	.	2f/	-gma-	1r	.
2C/	tan-	.	.	.	.	2.e/	.	.	.
2AA/	.	2r	.	.	.	.	.	1r	.
.	.	.	.	.	.	4d/	.	.	.
2D\	.	2F\	tan-	.	.	2d/	.	.	.
=106	=106	=106	=106	=106	=106	=106	=106	=106	=106
2E\	.	2G\	.	0.r	.	2B/	.	1r	.
2C/	.	2A\	.	.	.	2.e/	.	.	.
1D	.	2F\	.	.	.	.	.	1r	.
.	.	.	.	.	.	4d/	.	.	.
.	.	2G\	.	.	.	1d	.	.	.
1AA	.	1E	.	.	.	.	.	1e	tan-
.	.	.	.	.	.	2c#i/	.	.	.
=107	=107	=107	=107	=107	=107	=107	=107	=107	=107
0.DD	.	1D	.	0.A	et	0d	-te	1f	.
.	.	2F\	.	.	.	.	.	0a	.
.	.	2G\	.	.	.	.	.	.	.
.	.	1A	.	.	.	1f	tan-	.	.
=108	=108	=108	=108	=108	=108	=108	=108	=108	=108
0AA;	-to	0A;	-to	0.c#;	.	0e;	-to	0a;	-to
1r	.	1r	.	.	.	1r	.	1r	.
=109	=109	=109	=109	=109	=109	=109	=109	=109	=109
0.DD	ut,	0A	ut,	0.d	coe-	1.f	ut,	0a	ut,
.	.	.	.	.	.	2e/	.	.	.
.	.	1A	sic	.	.	1d	sic	1a	sic
=110	=110	=110	=110	=110	=110	=110	=110	=110	=110
0.AA	sic	0A	in-	0.e	.	0c#	in-	1a	in-
.	.	.	.	.	.	.	.	1a	-tre-
.	.	2A\	-tre-	.	.	[1e	-tre-	1a	-pi-
.	.	2G\	-pi-	.	.	.	.	.	.
=111	=111	=111	=111	=111	=111	=111	=111	=111	=111
0.C	in-	1E	-di,	0.e	-pe-	1e]	.	1.g	-di,
.	.	1r	.	.	.	0g	-pi-	.	.
.	.	.	.	.	.	.	.	1cc	Chri-
.	.	1r	.	.	.	.	.	.	.
.	.	.	.	.	.	.	.	2b\	.
=112	=112	=112	=112	=112	=112	=112	=112	=112	=112
0GG	-tre-	0G	Chri-	0d	.	0g	-di,	1b	-sti
.	.	.	.	.	.	.	.	1b	ma-
[1D	.	1A	.	1d	-runt	1f#	Chri-	1a	-gna-
=113	=113	=113	=113	=113	=113	=113	=113	=113	=113
1D]	.	1F#	.	1A	.	1f#	-sti	1a	-li-
0AA	-pi-	1r	.	1.c	.	2e/	ma-	1a	-a
.	.	.	.	.	.	1e	-gna-	.	.
.	.	1r	.	.	.	.	.	2e/	fan-
.	.	.	.	2B\	.	4d/	-li-	2f#/	.
.	.	.	.	.	.	4c/	.	.	.
=114	=114	=114	=114	=114	=114	=114	=114	=114	=114
0GG;	-di,	0G;	-sti	0d;	.	0B;	-a	0g;	-tur
1r	.	1r	.	1r	.	1r	.	1r	.
=115	=115	=115	=115	=115	=115	=115	=115	=115	=115
0C	Chri-	0G	ma-	0.c	lo-	1e	fan-	1.g	om-
.	.	.	.	.	.	1.e	-tur	.	.
.	.	.	.	.	.	.	.	2g/	-ni
1C	-sti	1G	-gna-	.	.	.	.	2.g/	lin-
.	.	.	.	.	.	2f/	.	.	.
.	.	.	.	.	.	.	.	4a/	.
=116	=116	=116	=116	=116	=116	=116	=116	=116	=116
1GG	ma-	1G	-li-	0d	.	2g/	om-	1b	.
.	.	.	.	.	.	2f/	-ni	.	.
1BB	-gna-	1G	-a	.	.	1d	lin-	1b	-gua-
[1AA	-li-	2.A\	fan-	1c	.	1e	.	1cc	.
.	.	4G\	.	.	.	.	.	.	.
=117	=117	=117	=117	=117	=117	=117	=117	=117	=117
1AA]	.	2F\	.	1c	.	1c	-gua-	1a	-rum
.	.	2E\	.	.	.	.	.	.	.
0GG	-a	1G	.	0B	.	1.d	.	1b	ge-
.	.	1G	-tur	.	.	.	.	1g	-ne-
.	.	.	.	.	.	2e/	-rum	.	.
=118	=118	=118	=118	=118	=118	=118	=118	=118	=118
0.D	fan-	1r	.	0.A	.	2f/	ge-	1a	-re
.	.	.	.	.	.	2g/	-ne-	.	.
.	.	1r	.	.	.	1a	-re	2f/	cun-
.	.	.	.	.	.	.	.	2g/	.
.	.	1F	cun-	.	.	2.f/	cun-	1a	.
.	.	.	.	.	.	4d/	.	.	.
=119	=119	=119	=119	=119	=119	=119	=119	=119	=119
0GG	-tur	0G	-ctis	0B	.	1.d	-ctis	1g	-ctis
.	.	.	.	.	.	.	.	1r	.
.	.	.	.	.	.	2e/	stu-	.	.
1FF	cun-	1A	.	1c	.	1f	-pe-	1r	.
=120	=120	=120	=120	=120	=120	=120	=120	=120	=120
1GG	-ctis	1G	stu-	1B	.	1d	-fa-	2.g/	stu-
.	.	.	.	.	.	.	.	4f/	.
2AA/	stu-	2C/	-pe-	2A/	.	1r	.	2e/	-pe-
2C/	-pe-	2E\	.	1A	.	.	.	2c/	.
1BB	-fa-	1D	-fa-	.	.	1r	.	1d	-fa-
.	.	.	.	2G#i/	.	.	.	.	.
=121	=121	=121	=121	=121	=121	=121	=121	=121	=121
*	*	*	*	*	*	*^	*	*	*
[0.AAl	-ctis.	0.C#	-ctis.	[0.Al	-qui,	[y0.el\	[y0.al/	-ctis.	0.e	-ctis.
=122	=122	=122	=122	=122	=122	=122	=122	=122	=122	=122
0.AA]	.	0.El	.	0.A]	.	0.e]yy	0.a]yy	.	0.al	.
*	*	*	*	*	*	*v	*v	*	*	*
!!LO:LB:i:g=z
=123||	=123||	=123||	=123||	=123||	=123||	=123||	=123||	=123||	=123||
*>B	*>B	*>B	*>B	*>B	*>B	*>B	*>B	*>B	*>B
*clefF4	*	*clefF4	*	*clefGv2	*	*clefG2	*	*clefG2	*
*k[]	*	*k[]	*	*k[]	*	*k[]	*	*k[]	*
*M2/1	*	*M2/1	*	*M2/1	*	*M2/1	*	*M2/1	*
*met(C2)	*	*met(C2)	*	*met(C2)	*	*met(C2)	*	*met(C2)	*
!!section: Nec mirum si tanta/Pro ut spiritus sanctus
!!!OMD: Nec mirum si tanta/Pro ut spiritus sanctus
1.AA	Nec	1.E	Nec	0r	.	0r	.	0r	.
2BB/	.	2D\	.	.	.	.	.	.	.
=124.	=124	=124.	=124	=124.	=124	=124.	=124	=124.	=124
1C	mi-	1E	mi-	0r	.	0r	.	0r	.
1D	-rum,	1F	-rum,	.	.	.	.	.	.
=125	=125	=125	=125	=125	=125	=125	=125	=125	=125
1GG	si	1G	si	0r	.	0r	.	0r	.
1D	tan-	1F	tan-	.	.	.	.	.	.
=126.	=126	=126.	=126	=126.	=126	=126.	=126	=126.	=126
2C/	-ta	1E	-ta	0r	.	0r	.	0r	.
1AA	si-	.	.	.	.	.	.	.	.
.	.	1C#	si-	.	.	.	.	.	.
2AA/	-bi	.	.	.	.	.	.	.	.
=127	=127	=127	=127	=127	=127	=127	=127	=127	=127
2FF/	su-	1D	-bi	0r	.	0r	.	0r	.
2GG/	.	.	.	.	.	.	.	.	.
1AA	.	2C/	su-	.	.	.	.	.	.
.	.	[2E\	.	.	.	.	.	.	.
=128.	=128	=128.	=128	=128.	=128	=128.	=128	=128.	=128
2C/	.	2E\]	.	0r	.	0r	.	0r	.
2D\	.	2F\	-bi-	.	.	.	.	.	.
1E	.	2G\	-to	.	.	.	.	.	.
.	.	[2E\	pa-	.	.	.	.	.	.
=129	=129	=129	=129	=129	=129	=129	=129	=129	=129
2C/	-bi-	2E\]	.	0r	.	0r	.	0r	.
2AA/	.	1A	.	.	.	.	.	.	.
1BB	.	.	.	.	.	.	.	.	.
.	.	2G#i\	-tu-	.	.	.	.	.	.
=130.	=130	=130.	=130	=130.	=130	=130.	=130	=130.	=130
2AA/	-to	2.A\	-e-	0r	.	0r	.	0r	.
2r	.	.	.	.	.	.	.	.	.
.	.	4G\	.	.	.	.	.	.	.
2.DD/	pa-	1F	.	.	.	.	.	.	.
4EE/	.	.	.	.	.	.	.	.	.
=131	=131	=131	=131	=131	=131	=131	=131	=131	=131
2FF/	-tu-	2.D\	.	0r	.	0r	.	0r	.
2.GG/	-e-	.	.	.	.	.	.	.	.
.	.	4C/	.	.	.	.	.	.	.
.	.	2D\	.	.	.	.	.	.	.
4FF/	.	.	.	.	.	.	.	.	.
2GG/	.	[2E\	.	.	.	.	.	.	.
=132.	=132	=132.	=132	=132.	=132	=132.	=132	=132.	=132
2EE/	.	2E\]	.	0r	.	0r	.	0r	.
1AA	.	2C/	.	.	.	.	.	.	.
.	.	1BB	.	.	.	.	.	.	.
2GG#i/	.	.	.	.	.	.	.	.	.
=133	=133	=133	=133	=133	=133	=133	=133	=133	=133
0AA	-runt,	0AA	-runt,	0r	.	1.e	Nec	1.e	Nec
.	.	.	.	.	.	2f/	.	2d/	.
=134.	=134	=134.	=134	=134.	=134	=134.	=134	=134.	=134
0r	.	0r	.	0r	.	1g	mi-	1e	mi-
.	.	.	.	.	.	1a	-rum,	1f	-rum,
=135	=135	=135	=135	=135	=135	=135	=135	=135	=135
0r	.	0r	.	0r	.	1e	si	1g	si
.	.	.	.	.	.	1d	tan-	1f	tan-
=136.	=136	=136.	=136	=136.	=136	=136.	=136	=136.	=136
0r	.	0r	.	0r	.	1.c#	-ta	1e	-ta
.	.	.	.	.	.	.	.	[1a	si-
.	.	.	.	.	.	[2f/	si-	.	.
=137	=137	=137	=137	=137	=137	=137	=137	=137	=137
0r	.	0r	.	0r	.	2f/]	.	2a/]	.
.	.	.	.	.	.	2d/	.	4g/	.
.	.	.	.	.	.	.	.	4f/	.
.	.	.	.	.	.	1e	-bi	1g	-bi
=138.	=138	=138.	=138	=138.	=138	=138.	=138	=138.	=138
0r	.	0r	.	0r	.	1A	su-	1a	su-
.	.	.	.	.	.	1A	-bi-	1cc	-bi-
=139	=139	=139	=139	=139	=139	=139	=139	=139	=139
0r	.	0r	.	0r	.	1G	-to	1b	-to
.	.	.	.	.	.	1c	pa-	1a	pa-
=140.	=140	=140.	=140	=140.	=140	=140.	=140	=140.	=140
0r	.	0r	.	0r	.	2d/	-tu-	1a	-tu-
.	.	.	.	.	.	1f	-e-	.	.
.	.	.	.	.	.	.	.	2f/	-e-
.	.	.	.	.	.	[2e/	.	[2g/	.
=141	=141	=141	=141	=141	=141	=141	=141	=141	=141
0r	.	0r	.	0r	.	4e/]	.	2g/]	.
.	.	.	.	.	.	4d/	.	.	.
.	.	.	.	.	.	1d	.	2f/	.
.	.	.	.	.	.	.	.	1e	.
.	.	.	.	.	.	2c#i/	.	.	.
=142.	=142	=142.	=142	=142.	=142	=142.	=142	=142.	=142
0r	.	0r	.	0r	.	1d	-runt,	0d	-runt,
.	.	.	.	.	.	1r	.	.	.
=143	=143	=143	=143	=143	=143	=143	=143	=143	=143
0r	.	1AA	est	0r	.	1.e	est	0r	.
.	.	1AA	u-	.	.	.	.	.	.
.	.	.	.	.	.	[2f/	u-	.	.
=144.	=144	=144.	=144	=144.	=144	=144.	=144	=144.	=144
0r	.	1D	.	0r	.	1f]	.	0r	.
.	.	1C	-bi,	.	.	[1e	-bi	.	.
=145	=145	=145	=145	=145	=145	=145	=145	=145	=145
0r	.	1E	Pneu-	0r	.	2e/]	.	0r	.
.	.	.	.	.	.	1.g	Pneu-	.	.
.	.	1E	-ma	.	.	.	.	.	.
=146.	=146	=146.	=146	=146.	=146	=146.	=146	=146.	=146
0r	.	1D	do-	0r	.	1f	-ma	1a	est
.	.	1A	.	.	.	1f	do-	1a	u-
=147	=147	=147	=147	=147	=147	=147	=147	=147	=147
0r	.	1A	-cens;	0r	.	0e	-cens,	1cc	-bi,
.	.	1A	nam	.	.	.	.	1cc	Pneu-
=148.	=148	=148.	=148	=148.	=148	=148.	=148	=148.	=148
0r	.	1G	.	0r	.	0r	.	1b	-ma
.	.	1G	fit	.	.	.	.	1b	co-
=149	=149	=149	=149	=149	=149	=149	=149	=149	=149
0r	.	1D	.	0r	.	0f#	nam	0a	-cens;
.	.	1D	mo-	.	.	.	.	.	.
=150.	=150	=150.	=150	=150.	=150	=150.	=150	=150.	=150
0r	.	0E	.	0r	.	1g	fit	0r	.
.	.	.	.	.	.	1g	mo-	.	.
=151	=151	=151	=151	=151	=151	=151	=151	=151	=151
0r	.	0D	-ra	0r	.	1.a	.	0f#	nam
.	.	.	.	.	.	4g/	.	.	.
.	.	.	.	.	.	4f/	.	.	.
=152.	=152	=152.	=152	=152.	=152	=152.	=152	=152.	=152
0r	.	0r	.	0r	.	1e	-ra	1g	fit
.	.	.	.	.	.	1g	nul-	1g	mo-
=153	=153	=153	=153	=153	=153	=153	=153	=153	=153
0r	.	0D	nul-	0r	.	1f	-la	1.a	ra
.	.	.	.	.	.	1d	.	.	.
.	.	.	.	.	.	.	.	4g/	.
.	.	.	.	.	.	.	.	4f/	.
=154.	=154	=154.	=154	=154.	=154	=154.	=154	=154.	=154
0r	.	0A	.	0r	.	2.c#/	do-	0e	.
.	.	.	.	.	.	4d/	.	.	.
.	.	.	.	.	.	2e/	.	.	.
.	.	.	.	.	.	2f/	.	.	.
=155	=155	=155	=155	=155	=155	=155	=155	=155	=155
0r	.	1G	-la	0r	.	2g/	-cen-	0r	.
.	.	.	.	.	.	2.e/	.	.	.
.	.	1A	.	.	.	.	.	.	.
.	.	.	.	.	.	4d/	.	.	.
.	.	.	.	.	.	2c/	.	.	.
=156.	=156	=156.	=156	=156.	=156	=156.	=156	=156.	=156
0r	.	2E\	do-	0r	.	2B/	.	0r	.
.	.	2G\	.	.	.	1e	.	.	.
.	.	1F	.	.	.	.	.	.	.
.	.	.	.	.	.	2d/	.	.	.
=157	=157	=157	=157	=157	=157	=157	=157	=157	=157
0r	.	[0E	-cen-	0r	.	0e	-do:	1.g	nul-
.	.	.	.	.	.	.	.	2a/	-la
=158.	=158	=158.	=158	=158.	=158	=158.	=158	=158.	=158
0r	.	1E]	.	0r	.	1r	.	1b	.
.	.	1AA	.	.	.	1e	im-	1cc	do-
=159	=159	=159	=159	=159	=159	=159	=159	=159	=159
0r	.	0E	-do:	0r	.	2e/	-bu-	2.g/	-cen-
.	.	.	.	.	.	2.g/	.	.	.
.	.	.	.	.	.	.	.	4a/	.
.	.	.	.	.	.	.	.	2b\	.
.	.	.	.	.	.	4f/	.	.	.
.	.	.	.	.	.	2e/	.	2cc\	.
=160.	=160	=160.	=160	=160.	=160	=160.	=160	=160.	=160
0r	.	1r	.	0r	.	2d/	.	4b\	.
.	.	.	.	.	.	.	.	4a/	.
.	.	.	.	.	.	2c/	.	1a	.
.	.	1E	im-	.	.	1B	.	.	.
.	.	.	.	.	.	.	.	2g#i/	.
=161	=161	=161	=161	=161	=161	=161	=161	=161	=161
0r	.	1.AA	-bu-	0r	.	2.A/	.	0a	do:
.	.	.	.	.	.	4B/	.	.	.
.	.	.	.	.	.	2c/	.	.	.
.	.	[2A\	-it,	.	.	2f/	.	.	.
=162.	=162	=162.	=162	=162.	=162	=162.	=162	=162.	=162
0r	.	4A\]	.	0r	.	2e/	.	0r	.
.	.	4G\	.	.	.	.	.	.	.
.	.	2F\	.	.	.	1d	.	.	.
.	.	1E	ill-	.	.	.	.	.	.
.	.	.	.	.	.	2c#i/	.	.	.
=163	=163	=163	=163	=163	=163	=163	=163	=163	=163
0r	.	1.D	-lu-	0r	.	1d	-it,	0a	im-
.	.	.	.	.	.	1A	.	.	.
.	.	2E\	.	.	.	.	.	.	.
=164.	=164	=164.	=164	=164.	=164	=164.	=164	=164.	=164
0r	.	1F	.	0r	.	2r	.	1a	-bu-
.	.	.	.	.	.	1d	il-	.	.
.	.	1D	.	.	.	.	.	1a	-it,
.	.	.	.	.	.	2d/	-lu-	.	.
=165	=165	=165	=165	=165	=165	=165	=165	=165	=165
0r	.	2C/	.	0r	.	2e/	.	0r	.
.	.	2D\	.	.	.	2f/	.	.	.
.	.	1BB	.	.	.	4g/	-strat,	.	.
.	.	.	.	.	.	4f/	.	.	.
.	.	.	.	.	.	4e/	.	.	.
.	.	.	.	.	.	4d/	.	.	.
=166.	=166	=166.	=166	=166.	=166	=166.	=166	=166.	=166
0r	.	0AA	-strat,	0r	.	1c#	.	0a	ill-
.	.	.	.	.	.	2r	.	.	.
.	.	.	.	.	.	[2c#i/	dis-	.	.
=167	=167	=167	=167	=167	=167	=167	=167	=167	=167
0r	.	1r	.	0r	.	2c#/]	.	1a	-lu-
.	.	.	.	.	.	2d/	.	.	.
.	.	[1A	dis-	.	.	1e	-po-	1a	-strat,
=168.	=168	=168.	=168	=168.	=168	=168.	=168	=168.	=168
0r	.	2A\]	.	0r	.	2c/	.	0r	.
.	.	2F\	-po-	.	.	1f	.	.	.
.	.	1G	.	.	.	.	.	.	.
.	.	.	.	.	.	2e/	.	.	.
=169	=169	=169	=169	=169	=169	=169	=169	=169	=169
0r	.	0F	-nit,	0r	.	0f	-nit,	0a	dis-
=170.	=170	=170.	=170	=170.	=170	=170.	=170	=170.	=170
0r	.	1.F	sin-	0r	.	1r	.	1a	-po-
.	.	.	.	.	.	[1f	sin-	1a	-nit,
.	.	2E\	.	.	.	.	.	.	.
=171	=171	=171	=171	=171	=171	=171	=171	=171	=171
0r	.	1D	.	0r	.	2f/]	.	0r	.
.	.	.	.	.	.	2f/	-gu-	.	.
.	.	1C	-gu-	.	.	[1e	-la	.	.
=172.	=172	=172.	=172	=172.	=172	=172.	=172	=172.	=172
0r	.	0AA	-la	0r	.	2e/]	.	1.a	sin-
.	.	.	.	.	.	1c	com-	.	.
.	.	.	.	.	.	2A/	.	2a/	-gu-
=173	=173	=173	=173	=173	=173	=173	=173	=173	=173
0r	.	1r	.	0r	.	2c/	.	1a	-la
.	.	.	.	.	.	2d/	.	.	.
.	.	1E	com-	.	.	1B	.	1g	com-
=174.	=174	=174.	=174	=174.	=174	=174.	=174	=174.	=174
0r	.	2.F\	.	0r	.	2A/	.	0a	-plet;
.	.	.	.	.	.	2.d/	.	.	.
.	.	4E\	.	.	.	.	.	.	.
.	.	2D\	.	.	.	.	.	.	.
.	.	.	.	.	.	4f/	.	.	.
.	.	2C/	.	.	.	[2e/	.	.	.
=175	=175	=175	=175	=175	=175	=175	=175	=175	=175
0r	.	1D	.	0r	.	4e/]	.	0r	.
.	.	.	.	.	.	4d/	.	.	.
.	.	.	.	.	.	1d	.	.	.
.	.	1E	.	.	.	.	.	.	.
.	.	.	.	.	.	2c#i/	.	.	.
=176.	=176	=176.	=176	=176.	=176	=176.	=176	=176.	=176
0r	.	0D	-plet;	0r	.	0d	-plet;	0a	et
=177	=177	=177	=177	=177	=177	=177	=177	=177	=177
0r	.	1r	.	0r	.	1A	et	1a	va-
.	.	1AA	et	.	.	2.c/	va-	1a	-li-
.	.	.	.	.	.	4d/	.	.	.
=178.	=178	=178.	=178	=178.	=178	=178.	=178	=178.	=178
0r	.	1C	va-	0r	.	1e	.	1g	-dum
.	.	1C	-li-	.	.	1e	-li-	1g	ni-
=179	=179	=179	=179	=179	=179	=179	=179	=179	=179
0r	.	1D	-dum	0r	.	1d	-dum	1f	-hil
.	.	2AA/	ni-	.	.	1c	ni-	2e/	.
.	.	2FF/	-hil	.	.	.	.	[2a/	.
=180.	=180	=180.	=180	=180.	=180	=180.	=180	=180.	=180
0r	.	1GG	est	0r	.	2G/	-hil	4a/]	.
.	.	.	.	.	.	.	.	4g/	.
.	.	.	.	.	.	2B/	.	2.g/	.
.	.	1D	.	.	.	1A	.	.	.
.	.	.	.	.	.	.	.	4f#i/	.
.	.	.	.	.	.	.	.	2f#i/	.
=181	=181	=181	=181	=181	=181	=181	=181	=181	=181
0r	.	2E\	i-	0r	.	2.G/	.	0g	est
.	.	2C/	-pso	.	.	.	.	.	.
.	.	.	.	.	.	4A/	.	.	.
.	.	2r	.	.	.	2B/	.	.	.
.	.	2C/	si-	.	.	2c/	.	.	.
=182.	=182	=182.	=182	=182.	=182	=182.	=182	=182.	=182
0r	.	2BB/	.	0r	.	2d/	.	0r	.
.	.	2C/	.	.	.	2.e/	.	.	.
.	.	1AA	-ne	.	.	.	.	.	.
.	.	.	.	.	.	4d/	.	.	.
.	.	.	.	.	.	2c/	.	.	.
=183	=183	=183	=183	=183	=183	=183	=183	=183	=183
0r	.	1GG	nil-	0r	.	1B	est	0g	i-
.	.	[1G	-que	.	.	1r	.	.	.
=184.	=184	=184.	=184	=184.	=184	=184.	=184	=184.	=184
0r	.	2G\]	.	0r	.	1d	i-	1g	-pso
.	.	2F\	.	.	.	.	.	.	.
.	.	1E	be-	.	.	2e/	-pso	1g	si-
.	.	.	.	.	.	[2g/	si-	.	.
=185	=185	=185	=185	=185	=185	=185	=185	=185	=185
0r	.	1D	-at-	0r	.	4g/]	.	0a	.
.	.	.	.	.	.	4f/	.	.	.
.	.	.	.	.	.	2f/	.	.	.
.	.	2C/	.	.	.	4e/	.	.	.
.	.	.	.	.	.	4d/	.	.	.
.	.	2E\	.	.	.	2c/	.	.	.
=186.	=186	=186.	=186	=186.	=186	=186.	=186	=186.	=186
0r	.	2D\	.	0r	.	2B/	.	0r	.
.	.	2F\	.	.	.	1d	.	.	.
.	.	1E	.	.	.	.	.	.	.
.	.	.	.	.	.	2c#i/	.	.	.
=187	=187	=187	=187	=187	=187	=187	=187	=187	=187
0r	.	[0D	-tum;	0r	.	0d	-ne	0a	nil-
=188.	=188	=188.	=188	=188.	=188	=188.	=188	=188.	=188
0r	.	0D]	.	0r	.	1r	.	1a	-que
.	.	.	.	.	.	1f	nil-	1a	be-
=189	=189	=189	=189	=189	=189	=189	=189	=189	=189
0r	.	0GG	.	0r	.	2.g/	.	1b	-at-
.	.	.	.	.	.	4f/	.	.	.
.	.	.	.	.	.	2e/	.	1g	.
.	.	.	.	.	.	[2d/	.	.	.
=190.	=190	=190.	=190	=190.	=190	=190.	=190	=190.	=190
0r	.	1r	.	0r	.	2d/]	.	0a	-tum;
.	.	.	.	.	.	2c/	.	.	.
.	.	1D	hic	.	.	2A/	.	.	.
.	.	.	.	.	.	2d/	.	.	.
=191	=191	=191	=191	=191	=191	=191	=191	=191	=191
0r	.	2AA/	De-	0r	.	4c/	.	0r	.
.	.	.	.	.	.	4B/	.	.	.
.	.	2C/	.	.	.	1A	.	.	.
.	.	1BB	-us	.	.	.	.	.	.
.	.	.	.	.	.	2G#i/	.	.	.
=192.	=192	=192.	=192	=192.	=192	=192.	=192	=192.	=192
0r	.	0AA	est	0r	.	1A	-que	1a	hic
.	.	.	.	.	.	2r	.	1a	De-
.	.	.	.	.	.	2c/	be-	.	.
=193	=193	=193	=193	=193	=193	=193	=193	=193	=193
0r	.	0r	.	0r	.	2d/	-at-	1b	-us
.	.	.	.	.	.	2e/	.	.	.
.	.	.	.	.	.	4f/	.	2a/	est
.	.	.	.	.	.	4g/	.	.	.
.	.	.	.	.	.	[2a/	.	2cc\	.
=194.	=194	=194.	=194	=194.	=194	=194.	=194	=194.	=194
0r	.	0r	.	0r	.	4a/]	.	2b\	no-
.	.	.	.	.	.	4g/	.	.	.
.	.	.	.	.	.	2g/	.	2.g/	.
.	.	.	.	.	.	2e/	.	.	.
.	.	.	.	.	.	.	.	4f/	.
.	.	.	.	.	.	2f/	.	[2a/	.
=195	=195	=195	=195	=195	=195	=195	=195	=195	=195
0r	.	0r	.	0r	.	2e/	.	2a/]	.
.	.	.	.	.	.	1d	.	2f/	.
.	.	.	.	.	.	.	.	1e	.
.	.	.	.	.	.	2c#i/	.	.	.
=196.	=196	=196.	=196	=196.	=196	=196.	=196	=196.	=196
0r	.	0r	.	0r	.	0d	-tum;	0d	.
=197	=197	=197	=197	=197	=197	=197	=197	=197	=197
[0AA	hic	0E	no-	[0A	pro-	0r	.	[0c	-ster,
=198.	=198	=198.	=198	=198.	=198	=198.	=198	=198.	=198
0AA]	.	0E	-ster,	0A_	.	0r	.	0c]	.
=199	=199	=199	=199	=199	=199	=199	=199	=199	=199
[0DD	.	0D	Per-	0A_	.	0d	hic	0f	Per-
=200.	=200	=200.	=200	=200.	=200	=200.	=200	=200.	=200
0DD]	.	1D	-so-	0A]	.	0A	De-	0f	-so-
.	.	1D	-na-	.	.	.	.	.	.
=201	=201	=201	=201	=201	=201	=201	=201	=201	=201
[0AA	De-	0C	-que	[0E	.	0A	-us	0e	-na-
=202.	=202	=202.	=202	=202.	=202	=202.	=202	=202.	=202
0AA]	.	1r	.	0E]	.	0A	est	1c	-que
.	.	1C	ter-	.	.	.	.	1e	.
=203	=203	=203	=203	=203	=203	=203	=203	=203	=203
0BB	.	0D	-na	0G	-ut	0r	.	1.d	ter-
.	.	.	.	.	.	.	.	2c/	.
=204.	=204	=204.	=204	=204.	=204	=204.	=204	=204.	=204
1.AA	-us	0E	.	0A	.	0e	no-	1.c	-na
2BB/	.	.	.	.	.	.	.	2d/	per-
=205	=205	=205	=205	=205	=205	=205	=205	=205	=205
1C	est	0r	.	1A	Spi-	1e	-ster,	1e	-en-
1D	.	.	.	1B	.	1d	.	1f	.
=206.	=206	=206.	=206	=206.	=206	=206.	=206	=206.	=206
1E	no-	0r	.	1c	.	0c	.	0e	.
1C	.	.	.	[1A	-ri-	.	.	.	.
=207	=207	=207	=207	=207	=207	=207	=207	=207	=207
0BB	.	0D	per-	1A]	.	0d	.	0d	-nis,
.	.	.	.	1G#i	.	.	.	.	.
=208.	=208	=208.	=208	=208.	=208	=208.	=208	=208.	=208
0AA	-ster,	1.E	-en-	0A	-tus	1c#	Per-	0r	.
.	.	.	.	.	.	[1e	.	.	.
.	.	2F\	.	.	.	.	.	.	.
=209	=209	=209	=209	=209	=209	=209	=209	=209	=209
0r	.	1G	.	0r	.	2e/]	.	0r	.
.	.	.	.	.	.	2f/	.	.	.
.	.	1E	.	.	.	1g	-so-	.	.
=210.	=210	=210.	=210	=210.	=210	=210.	=210	=210.	=210
0r	.	1F	-nis,	0r	.	1a	-na-	0r	.
.	.	1D	.	.	.	1f	.	.	.
=211	=211	=211	=211	=211	=211	=211	=211	=211	=211
0AA	Per-	1r	.	0A	San-	1e	-que	0a	qui,
.	.	1A	qui,	.	.	1c	.	.	.
=212.	=212	=212.	=212	=212.	=212	=212.	=212	=212.	=212
1AA	-so-	1A	Ge-	1.c	.	0e	ter-	1a	Ge-
1C	-na-	1A	-ni-	.	.	.	.	1a	-ni-
.	.	.	.	2B\	.	.	.	.	.
=213	=213	=213	=213	=213	=213	=213	=213	=213	=213
1D	-que	0D	-to-	1A	.	0d	-na	1a	-to-
1BB	.	.	.	1G	.	.	.	1b	-que
=214.	=214	=214.	=214	=214.	=214	=214.	=214	=214.	=214
0AA	.	1E	-que	0A	-ctus	1r	.	1cc	Pa-
.	.	1r	.	.	.	1c	per-	1a	-tri
=215	=215	=215	=215	=215	=215	=215	=215	=215	=215
0r	.	0r	.	0r	.	1d	-en-	1f	.
.	.	.	.	.	.	2A/	.	2.e/	com-
.	.	.	.	.	.	[2c/	.	.	.
.	.	.	.	.	.	.	.	4f/	.
=216.	=216	=216.	=216	=216.	=216	=216.	=216	=216.	=216
0r	.	0r	.	0r	.	4c/]	.	2g/	.
.	.	.	.	.	.	4B/	.	.	.
.	.	.	.	.	.	2A/	.	1a	.
.	.	.	.	.	.	1B	.	.	.
.	.	.	.	.	.	.	.	2g#i/	.
=217	=217	=217	=217	=217	=217	=217	=217	=217	=217
0AA	ter-	0A	Pa-	1.A	da-	0A	-nis,	0a	-pat,
.	.	.	.	2B\	.	.	.	.	.
=218.	=218	=218.	=218	=218.	=218	=218.	=218	=218.	=218
1FF	.	1.A	-tri	1c	.	0r	.	0r	.
1GG	.	.	.	1B	.	.	.	.	.
.	.	4G\	.	.	.	.	.	.	.
.	.	4F\	.	.	.	.	.	.	.
=219	=219	=219	=219	=219	=219	=219	=219	=219	=219
0AA	.	1E	.	0c	.	1A	qui,	0e	ab
.	.	1E	com-	.	.	1c	Ge-	.	.
=220.	=220	=220.	=220	=220.	=220	=220.	=220	=220.	=220
0DD	-na	0D	-par,	0A	-bat	2d/	-ni-	1f	u-
.	.	.	.	.	.	2e/	.	.	.
.	.	.	.	.	.	1f	-to-	1a	-tro-
=221	=221	=221	=221	=221	=221	=221	=221	=221	=221
0r	.	0r	.	0r	.	2e/	-que	1g	-que
.	.	.	.	.	.	2.g/	Pa-	.	.
.	.	.	.	.	.	.	.	2e/	pro-
.	.	.	.	.	.	4f/	.	.	.
.	.	.	.	.	.	2e/	.	2g/	.
=222.	=222	=222.	=222	=222.	=222	=222.	=222	=222.	=222
0r	.	0r	.	0r	.	2c/	-tri	2a/	-ce-
.	.	.	.	.	.	1d	.	2f/	.
.	.	.	.	.	.	.	.	1e	.
.	.	.	.	.	.	2c#i/	com-	.	.
=223	=223	=223	=223	=223	=223	=223	=223	=223	=223
1.DD	per-	0D	ab	1.A	e-	1d	-par,	0d	-dit
.	.	.	.	.	.	[1f	ab	.	.
2EE/	.	.	.	2G/	.	.	.	.	.
=224.	=224	=224.	=224	=224.	=224	=224.	=224	=224.	=224
2.FF/	-en-	1D	u-	1.A	-lo-	2f/]	.	0r	.
.	.	.	.	.	.	2e/	.	.	.
4GG/	.	.	.	.	.	.	.	.	.
[1AA	.	1C	-tro-	.	.	1e	u-	.	.
.	.	.	.	[2c\	.	.	.	.	.
=225	=225	=225	=225	=225	=225	=225	=225	=225	=225
2AA/]	.	1AA	-que	2c\]	.	1c	-tro-	0r	.
2C/	.	.	.	1A	.	.	.	.	.
1BB	.	1D	pro-	.	.	1d	-que	.	.
.	.	.	.	2G#i/	.	.	.	.	.
=226.	=226	=226.	=226	=226.	=226	=226.	=226	=226.	=226
0AA	-nis,	1E	-ce-	0A	-qui	1c	pro-	0r	.
.	.	1C	.	.	.	[1A	-ce-	.	.
=227	=227	=227	=227	=227	=227	=227	=227	=227	=227
0r	.	1D	.	0r	.	2A/]	.	0r	.
.	.	.	.	.	.	2d/	.	.	.
.	.	2C/	.	.	.	2e/	.	.	.
.	.	[2F\	.	.	.	2c/	.	.	.
=228.	=228	=228.	=228	=228.	=228	=228.	=228	=228.	=228
0r	.	2F\]	.	0r	.	2d/	.	0r	.
.	.	2A\	.	.	.	1f	.	.	.
.	.	1G	.	.	.	.	.	.	.
.	.	.	.	.	.	2e/	.	.	.
=229	=229	=229	=229	=229	=229	=229	=229	=229	=229
1.FF	qui,	1.F	.	0A	il-	0f	-dit.	0r	.
2GG/	.	4E\	.	.	.	.	.	.	.
.	.	4D\	.	.	.	.	.	.	.
=230.	=230	=230.	=230	=230.	=230	=230.	=230	=230.	=230
2.AA/	Ge-	2C/	.	1A	.	0r	.	0r	.
.	.	2D\	.	.	.	.	.	.	.
4BB/	.	.	.	.	.	.	.	.	.
1C	-ni-	[1E	.	2G/	.	.	.	.	.
.	.	.	.	[2c\	.	.	.	.	.
=231	=231	=231	=231	=231	=231	=231	=231	=231	=231
2.AA/	-to-	2E\]	.	2c\]	.	0r	.	0r	.
.	.	2.A\	.	2d\	.	.	.	.	.
4BB/	.	.	.	.	.	.	.	.	.
2C/	.	.	.	2e\	.	.	.	.	.
.	.	4G\	.	.	.	.	.	.	.
2D\	.	2F\	.	[2d\	.	.	.	.	.
=232.	=232	=232.	=232	=232.	=232	=232.	=232	=232.	=232
2E\	.	2G\	.	4d\]	.	0r	.	0r	.
.	.	.	.	4c\	.	.	.	.	.
2F\	.	2A\	.	2.c\	.	.	.	.	.
1D	.	1F	.	.	.	.	.	.	.
.	.	.	.	4B\	.	.	.	.	.
.	.	.	.	2B\	.	.	.	.	.
=233	=233	=233	=233	=233	=233	=233	=233	=233	=233
0C	-que	0G	-dit.	0c	-lis.	0e	Mu-	0g	Mu-
=234.	=234	=234.	=234	=234.	=234	=234.	=234	=234.	=234
0r	.	0r	.	0r	.	1e	-ne-	1g	-ne-
.	.	.	.	.	.	1f	-re,	1a	-re,
=235	=235	=235	=235	=235	=235	=235	=235	=235	=235
0GG	Pa-	0G	Mu-	0G	Et	1g	nos	1b-	nos
.	.	.	.	.	.	1d	i-	1b-i	i-
=236.	=236	=236.	=236	=236.	=236	=236.	=236	=236.	=236
1DD	-tri	1F	-ne-	1A	con-	1d	-gi-	1a	-gi-
1AA	com-	1E	.	1c	.	1e	-tur	1a	-tur
=237	=237	=237	=237	=237	=237	=237	=237	=237	=237
1FF	.	2F\	-re,	1c	-ve-	1A	lu-	1a	lu-
.	.	2E\	.	.	.	.	.	.	.
1GG	.	1D	nos	2B\	.	2B/	-cis	2g/	-cis
.	.	.	.	2A/	.	2d/	.	2f/	.
=238.	=238	=238.	=238	=238.	=238	=238.	=238	=238.	=238
1AA	.	1C	.	0c	-nit	1A	tan-	1e	tan-
1AA	.	1E	.	.	.	1c	-te	1e	-te
=239	=239	=239	=239	=239	=239	=239	=239	=239	=239
0DD	-par,	0D	.	0r	.	1.d	ra-	1f	ra-
.	.	.	.	.	.	.	.	1a	-di-
.	.	.	.	.	.	[2f/	-di-	.	.
=240.	=240	=240.	=240	=240.	=240	=240.	=240	=240.	=240
0r	.	0r	.	0r	.	4f/]	.	2g/	-an-
.	.	.	.	.	.	4e/	.	.	.
.	.	.	.	.	.	1e	-an-	2e/	.
.	.	.	.	.	.	.	.	1f	.
.	.	.	.	.	.	2d/	.	.	.
=241	=241	=241	=241	=241	=241	=241	=241	=241	=241
1.AA	ab	0r	.	1A	mul-	2e/	.	0e	-tis
.	.	.	.	.	.	1c	.	.	.
.	.	.	.	2A/	.	.	.	.	.
2GG/	.	.	.	2B\	.	2d/	.	.	.
=242.	=242	=242.	=242	=242.	=242	=242.	=242	=242.	=242
1AA	u-	0r	.	1A	.	2c/	-tis	0r	.
.	.	.	.	.	.	1A	.	.	.
1FF	.	.	.	1c	.	.	.	.	.
.	.	.	.	.	.	2F/	lau-	.	.
=243	=243	=243	=243	=243	=243	=243	=243	=243	=243
1GG	-tro-	0r	.	1G	.	2E/	.	0r	.
.	.	.	.	.	.	1G	.	.	.
1D	.	.	.	1A	.	.	.	.	.
.	.	.	.	.	.	2F#i/	.	.	.
=244.	=244	=244.	=244	=244.	=244	=244.	=244	=244.	=244
0GG	-que	0G	i-	0G	-ti-	1.G	-des	0g	lau-
.	.	.	.	.	.	2A/	.	.	.
=245	=245	=245	=245	=245	=245	=245	=245	=245	=245
0r	.	1E	.	0r	.	1B	.	1g	-des
.	.	1C	.	.	.	1c	al-	1g	al-
=246.	=246	=246.	=246	=246.	=246	=246.	=246	=246.	=246
0r	.	2F\	.	0r	.	1c	-ti-	1a	-ti-
.	.	1A	.	.	.	.	.	.	.
.	.	.	.	.	.	1d	-to-	1b	-to-
.	.	2G\	-gi-	.	.	.	.	.	.
=247	=247	=247	=247	=247	=247	=247	=247	=247	=247
0FF	pro-	1A	-tur	0A	-tu-	1c	-nas	1cc	-nas
.	.	1F	.	.	.	1f	ca-	1cc	ca-
=248.	=248	=248.	=248	=248.	=248	=248.	=248	=248.	=248
0GG	-ce-	1r	.	1G	-do	1d	-ni-	1b	-ni-
.	.	1G	lu-	1E	.	2e/	-mus	1b	-mus
.	.	.	.	.	.	2g/	.	.	.
=249	=249	=249	=249	=249	=249	=249	=249	=249	=249
0DD	.	1A	.	0F	.	2f/	ti-	0a	ti-
.	.	.	.	.	.	1d	.	.	.
.	.	[1A	-cis	.	.	.	.	.	.
.	.	.	.	.	.	4c/	.	.	.
.	.	.	.	.	.	4B/	.	.	.
=250.	=250	=250.	=250	=250.	=250	=250.	=250	=250.	=250
0AA	.	2A\]	.	0E	.	1.c#	-bi,	1a	-bi,
.	.	2G\	.	.	.	.	.	.	.
.	.	1E	tan-	.	.	.	.	1r	.
.	.	.	.	.	.	[2e/	Spi-	.	.
=251	=251	=251	=251	=251	=251	=251	=251	=251	=251
0DD	-dit.	0F	-te	0r	.	2e/]	.	1a	Spi-
.	.	.	.	.	.	1d	-ri-	.	.
.	.	.	.	.	.	.	.	1a	-ri-
.	.	.	.	.	.	2d/	-tus	.	.
=252.	=252	=252.	=252	=252.	=252	=252.	=252	=252.	=252
0r	.	1E	ra-	0r	.	2e/	.	1g	-tus
.	.	.	.	.	.	2.g/	al-	.	.
.	.	[1C	.	.	.	.	.	1e	.
.	.	.	.	.	.	4f/	.	.	.
.	.	.	.	.	.	2g/	.	.	.
=253	=253	=253	=253	=253	=253	=253	=253	=253	=253
0r	.	1C]	.	0r	.	4e/	.	1g	al-
.	.	.	.	.	.	4d/	.	.	.
.	.	.	.	.	.	1e	.	.	.
.	.	1D	-di-	.	.	.	.	1f	.
.	.	.	.	.	.	[2d/	.	.	.
=254.	=254	=254.	=254	=254.	=254	=254.	=254	=254.	=254
0r	.	0AA	-an-	0r	.	2d/]	.	0e	.
.	.	.	.	.	.	4c#i/	.	.	.
.	.	.	.	.	.	4d/	.	.	.
.	.	.	.	.	.	2c#i/	.	.	.
.	.	.	.	.	.	2B/	.	.	.
=255	=255	=255	=255	=255	=255	=255	=255	=255	=255
0r	.	1BB	-tis	0r	.	2d/	-me,	0d	-me,
.	.	.	.	.	.	2r	.	.	.
.	.	[1GG	.	.	.	2.d/	pre-	.	.
.	.	.	.	.	.	4c/	.	.	.
=256.	=256	=256.	=256	=256.	=256	=256.	=256	=256.	=256
0r	.	1GG]	.	0r	.	1B	-si-	0r	.
.	.	1C	pre-	.	.	1A	-di	.	.
=257	=257	=257	=257	=257	=257	=257	=257	=257	=257
0r	.	1BB	-si-	0r	.	1G	-o	0r	.
.	.	1AA	-di-	.	.	1c	fa-	.	.
=258.	=258	=258.	=258	=258.	=258	=258.	=258	=258.	=258
0r	.	1GG	-o	0r	.	1B	-mu-	0r	.
.	.	1C	fa-	.	.	1A	-lis	.	.
=259	=259	=259	=259	=259	=259	=259	=259	=259	=259
0r	.	1BB	-mu-	0r	.	1d	ro-	0r	.
.	.	1AA	-lis	.	.	1e	-gi-	.	.
=260.	=260	=260.	=260	=260.	=260	=260.	=260	=260.	=260
0r	.	1D	ro-	0r	.	1f	-tan-	0r	.
.	.	1E	-gi-	.	.	1g	-tes	.	.
=261	=261	=261	=261	=261	=261	=261	=261	=261	=261
0r	.	1F	-tan-	0r	.	1r	.	0r	.
.	.	1G	-tes	.	.	1d	per-	.	.
=262.	=262	=262.	=262	=262.	=262	=262.	=262	=262.	=262
0r	.	2G\	per-	0r	.	2e/	-pes	0r	.
.	.	2B\	.	.	.	1g	.	.	.
.	.	1A	-pes	.	.	.	.	.	.
.	.	.	.	.	.	2f/	ut	.	.
=263	=263	=263	=263	=263	=263	=263	=263	=263	=263
0r	.	1G	ut	0r	.	2g/	ad-	0r	.
.	.	.	.	.	.	2e/	.	.	.
.	.	2D\	ad-	.	.	2f/	.	.	.
.	.	2F\	.	.	.	[2a/	.	.	.
=264.	=264	=264.	=264	=264.	=264	=264.	=264	=264.	=264
0r	.	2E\	.	0r	.	4a/]	.	0r	.
.	.	.	.	.	.	4g/	.	.	.
.	.	2C/	.	.	.	2e/	.	.	.
.	.	2D\	.	.	.	2f/	.	.	.
.	.	2AA/	.	.	.	[2e/	.	.	.
=265	=265	=265	=265	=265	=265	=265	=265	=265	=265
0r	.	2C/	.	0r	.	4e/]	.	0r	.
.	.	.	.	.	.	4d/	.	.	.
.	.	2D\	.	.	.	1d	.	.	.
.	.	1E	.	.	.	.	.	.	.
.	.	.	.	.	.	2c#i/	.	.	.
=266.	=266	=266.	=266	=266.	=266	=266.	=266	=266.	=266
0D	car-	0D	-sis,	0r	.	0d	-sis,	1.a	pre-
.	.	.	.	.	.	.	.	2g/	.
=267	=267	=267	=267	=267	=267	=267	=267	=267	=267
1D	-nis	1r	.	0r	.	0r	.	1f	-si-
1C	.	1AA	car-	.	.	.	.	1e	-di-
=268.	=268	=268.	=268	=268.	=268	=268.	=268	=268.	=268
2D\	et	1A	-nis	0r	.	0r	.	1d	-o
2F\	.	.	.	.	.	.	.	.	.
1E	in-	2G\	et	.	.	.	.	1g	fa-
.	.	2E\	.	.	.	.	.	.	.
=269	=269	=269	=269	=269	=269	=269	=269	=269	=269
1D	-fir-	2F\	in-	0r	.	0r	.	1f	-mu-
.	.	1A	.	.	.	.	.	.	.
2C/	.	.	.	.	.	.	.	1e	-lis
2BB/	.	2G\	-fir-	.	.	.	.	.	.
=270.	=270	=270.	=270	=270.	=270	=270.	=270	=270.	=270
1AA	.	1F#	-ma	0r	.	0r	.	1a	ro-
1GG	-ma	1G	.	.	.	.	.	1b	-gi-
=271	=271	=271	=271	=271	=271	=271	=271	=271	=271
1FF	ro-	1A	ro-	0r	.	0r	.	1cc	-tan-
1GG	.	1G	.	.	.	.	.	1b	-tes
=272.	=272	=272.	=272	=272.	=272	=272.	=272	=272.	=272
1.D	.	2F\	.	0r	.	0r	.	1a	-per
.	.	1A	.	.	.	.	.	.	.
.	.	.	.	.	.	.	.	2f/	.
2E\	.	2G\	.	.	.	.	.	[2g/	-pes
=273	=273	=273	=273	=273	=273	=273	=273	=273	=273
1C	.	2E\	.	0r	.	0r	.	4g/]	.
.	.	.	.	.	.	.	.	4f/	.
.	.	2G\	.	.	.	.	.	2e/	.
1D	.	1F	.	.	.	.	.	2d/	ut
.	.	.	.	.	.	.	.	4c/	.
.	.	.	.	.	.	.	.	4d/	.
=274.	=274	=274.	=274	=274.	=274	=274.	=274	=274.	=274
1C	.	1E	.	0r	.	0r	.	1e	ad-
1AA	.	[1A	.	.	.	.	.	1c	.
=275	=275	=275	=275	=275	=275	=275	=275	=275	=275
0E	.	2A\]	.	0r	.	0r	.	0B	.
.	.	2G#i\	.	.	.	.	.	.	.
.	.	2G#i\	-bo-	.	.	.	.	.	.
.	.	2F#i\	.	.	.	.	.	.	.
=276.	=276	=276.	=276	=276.	=276	=276.	=276	=276.	=276
0AA	-bo-	0A	-rans	0r	.	1.e	tur-	0A	-sis,
.	.	.	.	.	.	2e/	-bi-	.	.
=277	=277	=277	=277	=277	=277	=277	=277	=277	=277
0AA	-rans	0r	.	0r	.	1e	-da	0r	.
.	.	.	.	.	.	1e	re-	.	.
=278.	=278	=278.	=278	=278.	=278	=278.	=278	=278.	=278
1r	.	0r	.	0r	.	2e/	-i-	1.e	tur-
.	.	.	.	.	.	2e/	-ci-	.	.
1C	vir-	.	.	.	.	1e	-ens,	.	.
.	.	.	.	.	.	.	.	2e/	-bi-
=279	=279	=279	=279	=279	=279	=279	=279	=279	=279
[0C	-tu-	0r	.	0r	.	1g	pa-	1e	-da
.	.	.	.	.	.	1g	-cis	1e	re-
=280.	=280	=280.	=280	=280.	=280	=280.	=280	=280.	=280
0C]	.	0r	.	0r	.	1g	tran-	2e/	-i-
.	.	.	.	.	.	.	.	2e/	-ci-
.	.	.	.	.	.	1g	-quil-	1e	-ens,
=281	=281	=281	=281	=281	=281	=281	=281	=281	=281
0C	-te	0r	.	0r	.	1e	-la	1g	pa-
.	.	.	.	.	.	1e	re-	1g	-cis
=282.	=282	=282.	=282	=282.	=282	=282.	=282	=282.	=282
0GG	.	0r	.	0r	.	1d	-fun-	1g	tran-
.	.	.	.	.	.	1d	-dens,	1g	-quil-
=283	=283	=283	=283	=283	=283	=283	=283	=283	=283
1r	.	0r	.	0r	.	1c#	pec-	1e	-la
1AA	su-	.	.	.	.	1c#	-tor-	1e	re-
=284.	=284	=284.	=284	=284.	=284	=284.	=284	=284.	=284
0DD	.	0r	.	0r	.	1d	-is	1d	-fun-
.	.	.	.	.	.	1f	y-	1d	-dens,
=285	=285	=285	=285	=285	=285	=285	=285	=285	=285
1r	.	0r	.	0r	.	1e	-ma	1c#	pec-
1AA	-per-	.	.	.	.	1e	ri-	1c#	-tor-
=286.	=286	=286.	=286	=286.	=286	=286.	=286	=286.	=286
1BB	.	0r	.	0r	.	0d	-gans	1d	-is
[1D	.	.	.	.	.	.	.	1f	y-
=287	=287	=287	=287	=287	=287	=287	=287	=287	=287
2D\]	.	0r	.	0r	.	1r	.	1e	-ma
2C#i/	.	.	.	.	.	.	.	.	.
1C#i	.	.	.	.	.	1e	do-	1e	ri-
=288.	=288	=288.	=288	=288.	=288	=288.	=288	=288.	=288
0D	-na,	1.A	vir-	0D	di-	1f	-ni	0d	-gans
.	.	.	.	.	.	1f	sep-	.	.
.	.	4G\	.	.	.	.	.	.	.
.	.	4F\	.	.	.	.	.	.	.
=289	=289	=289	=289	=289	=289	=289	=289	=289	=289
0C	.	1E	-tu-	0E	.	1g	-tem-	0r	.
.	.	1C	.	.	.	1e	-pli-	.	.
=290.	=290	=290.	=290	=290.	=290	=290.	=290	=290.	=290
0BB	.	0D	.	0G	-cen-	1d	-cis	0r	.
.	.	.	.	.	.	1d	im	.	.
=291	=291	=291	=291	=291	=291	=291	=291	=291	=291
*	*	*	*	*	*	*^	*	*	*
[0AA	.	0E	-te	0A	.	[0c#\	[0e/	-bre,	0e	do-
=292.	=292	=292.	=292	=292.	=292	=292.	=292.	=292	=292.	=292
0AA]	.	1r	.	1.A	.	0c#]\	0e]/	.	1a	-ni
.	.	1C	su-	.	.	.	.	.	1a	sep-
.	.	.	.	2B\	.	.	.	.	.	.
*	*	*	*	*	*	*v	*v	*	*	*
=293	=293	=293	=293	=293	=293	=293	=293	=293	=293
0r	.	1AA	-per-	1c	.	0r	.	1a	-tem-
.	.	1GG	.	1d	.	.	.	2.b\	-pli-
.	.	.	.	.	.	.	.	4a/	.
=294.	=294	=294.	=294	=294.	=294	=294.	=294	=294.	=294
0r	.	0AA	.	0c	.	0e	car-	1a	-cis
.	.	.	.	.	.	.	.	[1a	im-
=295	=295	=295	=295	=295	=295	=295	=295	=295	=295
0r	.	0E	.	0B	.	1e	-nis	2a/]	.
.	.	.	.	.	.	.	.	2g#i/	.
.	.	.	.	.	.	1e	et	1g#i	.
=296.	=296	=296.	=296	=296.	=296	=296.	=296	=296.	=296
0r	.	1AA	.	1c	.	1e	in-	0a	-bre,
.	.	1D	.	1d	.	1f	.	.	.
=297	=297	=297	=297	=297	=297	=297	=297	=297	=297
0r	.	1E	.	1c	.	1e	-fir-	0r	.
.	.	2F\	.	[1d	.	1d	-ma	.	.
.	.	[2G\	.	.	.	.	.	.	.
=298.	=298	=298.	=298	=298.	=298	=298.	=298	=298.	=298
0r	.	2G\]	.	2d\]	.	2B/	ro-	0r	.
.	.	2E\	.	1c	-ti-	2c/	-bo-	.	.
.	.	1D	.	.	.	1d	-rans	.	.
.	.	.	.	2B\	.	.	.	.	.
=299	=299	=299	=299	=299	=299	=299	=299	=299	=299
0C	su-	0C	-na.	0c	-um:	1e	vir-	0g	car-
.	.	.	.	.	.	1e	-tu-	.	.
=300.	=300	=300.	=300	=300.	=300	=300.	=300	=300.	=300
0C	-per-	0G	.	1.c	Al-	0e	-te	1g	-nis
.	.	.	.	.	.	.	.	1g	et
.	.	.	.	2d\	.	.	.	.	.
=301	=301	=301	=301	=301	=301	=301	=301	=301	=301
1AA	.	0r	.	1e	.	1c	su-	1a	in-
1C	.	.	.	1e	-le-	1c	-per-	1g	-fir-
=302.	=302	=302.	=302	=302.	=302	=302.	=302	=302.	=302
1D	.	0r	.	1d	.	1.A	.	1f	-ma
[1AA	.	.	.	1e	.	.	.	[1e	ro-
.	.	.	.	.	.	2B/	.	.	.
=303	=303	=303	=303	=303	=303	=303	=303	=303	=303
1AA]	.	0r	.	2c\	-lu-	1c	.	2e/]	.
.	.	.	.	2A/	.	.	.	2f/	-bo-
1GG	.	.	.	1B	.	1d	.	1g	-rans
=304.	=304	=304.	=304	=304.	=304	=304.	=304	=304.	=304
1FF	.	0r	.	2A/	-ia,	1f	.	2a/	vir-
.	.	.	.	2A/	al-	.	.	2f/	.
1C	.	.	.	2G/	.	2g/	.	1e	-tu-
.	.	.	.	[2A/	.	2e/	.	.	.
=305	=305	=305	=305	=305	=305	=305	=305	=305	=305
1AA	.	0r	.	2A/]	.	1f	.	1a	-te
.	.	.	.	2c\	.	.	.	.	.
1GG	-na.	.	.	2d\	.	1g	.	1b	su-
.	.	.	.	[2e\	.	.	.	.	.
=306.	=306	=306.	=306	=306.	=306	=306.	=306	=306.	=306
1C	.	0r	.	2e\]	.	2e/	.	2g/	.
.	.	.	.	2c\	.	2f/	.	2.cc\	-per-
1GG	A-	.	.	1d	.	1g	.	.	.
.	.	.	.	.	.	.	.	4b\	.
.	.	.	.	.	.	.	.	[2b\	.
=307	=307	=307	=307	=307	=307	=307	=307	=307	=307
1AA	.	0r	.	1c	.	0e	-na.	4b\]	.
.	.	.	.	.	.	.	.	4a/	.
.	.	.	.	.	.	.	.	1a	.
1EE	.	.	.	1B	.	.	.	.	.
.	.	.	.	.	.	.	.	2g#i/	.
=308.	=308	=308.	=308	=308.	=308	=308.	=308	=308.	=308
1FF	.	0r	.	2A/	.	1r	.	1a	-na.
.	.	.	.	2B\	.	.	.	.	.
1AA	.	.	.	1c	.	1c	A-	1e	.
=309	=309	=309	=309	=309	=309	=309	=309	=309	=309
0GG	.	0G	A-	0B	.	1.d	.	0g	.
.	.	.	.	.	.	2B/	.	.	.
=310.	=310	=310.	=310	=310.	=310	=310.	=310	=310.	=310
0DD	.	1F	.	0A	-le-	2d/	.	0a	.
.	.	.	.	.	.	2e/	.	.	.
.	.	1A	.	.	.	1f	.	.	.
=311	=311	=311	=311	=311	=311	=311	=311	=311	=311
1r	.	1G	.	1B	-lu-	2.e/	.	1r	.
.	.	.	.	.	.	4d/	.	.	.
1DD	.	1F	.	[1A	.	[1d	.	1d	A-
=312.	=312	=312.	=312	=312.	=312	=312.	=312	=312.	=312
0AA	.	0E	.	1A]	.	1d]	.	0e	.
.	.	.	.	1A	.	1c#i	.	.	.
=313	=313	=313	=313	=313	=313	=313	=313	=313	=313
[0DDl	-men.	[0Dl	-men.	[0Al	-ia.	[0dl	-men.	[0f#	-men.
=314.	=314	=314.	=314	=314.	=314	=314.	=314	=314.	=314
0DD_	.	0D_	.	0A_	.	0d_	.	0f#]	.
=315	=315	=315	=315	=315	=315	=315	=315	=315	=315
0DD]	.	0D]	.	0A]	.	0d]	.	0al	.
==	==	==	==	==	==	==	==	==	==
*-	*-	*-	*-	*-	*-	*-	*-	*-	*-
!!!RDF**kern: l=long note in original notation
!!!RDF**kern: i=editorial accidental
!!!ENC:	Jesse Rodin 8/13/2013
!!!END:	2013/08/14/
!!!EED:	Jesse Rodin
!!!EEV:	2014/01/03/
!!!ONB:	Translated from MusicXML and edited on 2014/01/03/ by Craig Sapp
!!muse2ps: C^@{COM}^i2I150v85,85,85,85,110Q16
